;FLAVOR:Marlin
;TIME:692
;Filament used: 0.74357m
;Layer height: 0.2
;MINX:84.751
;MINY:72.707
;MINZ:0.2
;MAXX:125.249
;MAXY:137.291
;MAXZ:5
;Generated with Cura_SteamEngine main
M140 S60
M105
M190 S60
M104 S200
M105
M109 S200
M82 ;absolute extrusion mode
G21 ;metric values
G90 ;absolute positioning
M82 ;set extruder to absolute mode
M107 ;start with the fan off
G28 X0 Y0 ;move X/Y to min endstops
G28 Z0 ;move Z to min endstops
G1 Z15.0 F100 ;move the platform down 15mm
G92 E0 ;zero the extruded length
G1 F200 E3 ;extrude 3mm of feed stock
G92 E0 ;zero the extruded length again
G1 F100
G0 Y20 F100
M117 Printing...
G5
G92 E0
G92 E0
G1 F2400 E-6
;LAYER_COUNT:25
;LAYER:0
M107
M204 S3000
M205 X10 Y10
G1 F600 Z0.275
G0 F3000 X90.743 Y77.566 Z0.275
G1 F600 Z0.2
G0 F3000 X85.954 Y86.532
M204 S1800
M205 X8 Y8
;TYPE:SKIRT
G1 F2400 E0
G1 X86.188 Y85.74 E0.03845
G1 X86.511 Y84.816 E0.08403
G1 X86.901 Y83.82 E0.13384
G1 X87.546 Y82.412 E0.20595
G1 X87.803 Y81.89 E0.23305
G1 X88.283 Y81.014 E0.27956
G1 X89.033 Y79.829 E0.34486
G1 X89.648 Y78.936 E0.39535
G1 X89.971 Y78.507 E0.42035
G1 X90.743 Y77.566 E0.47703
G1 X91.093 Y77.173 E0.50154
G1 X91.824 Y76.418 E0.55047
G1 X92.218 Y76.034 E0.57609
G1 X92.825 Y75.491 E0.61401
G1 X93.244 Y75.152 E0.63911
G1 X93.769 Y74.765 E0.66948
G1 X94.374 Y74.34 E0.70391
G1 X95.217 Y73.835 E0.74966
G1 X96.084 Y73.423 E0.79436
G1 X96.583 Y73.223 E0.81939
G1 X97.261 Y72.995 E0.8527
G1 X98.161 Y72.8 E0.89558
G1 X99.076 Y72.707 E0.93841
G1 X99.652 Y72.708 E0.96523
G1 X102.027 Y72.815 E1.07593
G1 X104.697 Y72.865 E1.20028
G1 X107.366 Y72.84 E1.32456
G1 X109.639 Y72.759 E1.43047
G1 X110.523 Y72.719 E1.47168
G1 X111.238 Y72.726 E1.50497
G1 X111.948 Y72.813 E1.53828
G1 X112.811 Y73.013 E1.57953
G1 X113.939 Y73.433 E1.63558
G1 X114.442 Y73.669 E1.66145
G1 X115.075 Y74.01 E1.69493
G1 X115.586 Y74.324 E1.72286
G1 X116.024 Y74.609 E1.74719
G1 X116.449 Y74.916 E1.7716
G1 X117.301 Y75.592 E1.82224
G1 X117.859 Y76.108 E1.85763
G1 X118.533 Y76.786 E1.90215
G1 X119.065 Y77.357 E1.93849
G1 X119.64 Y78.029 E1.97967
G1 X120.169 Y78.7 E2.01946
G1 X120.685 Y79.411 E2.06037
G1 X121.3 Y80.337 E2.11213
G1 X121.846 Y81.265 E2.16226
G1 X122.175 Y81.871 E2.19437
G1 X122.806 Y83.15 E2.26078
G1 X123.022 Y83.642 E2.2858
G1 X123.547 Y85.006 E2.35386
G1 X123.886 Y86.016 E2.40346
G1 X124.201 Y87.099 E2.45598
G1 X124.414 Y87.946 E2.49665
G1 X124.701 Y89.302 E2.56119
G1 X124.897 Y90.48 E2.6168
G1 X125.048 Y91.667 E2.67252
G1 X125.151 Y92.783 E2.7247
G1 X125.212 Y93.8 E2.77214
G1 X125.249 Y95.249 E2.83964
G1 X125.238 Y96.513 E2.8985
G1 X125.199 Y97.553 E2.94696
G1 X125.105 Y98.962 E3.01271
G1 X124.992 Y100.137 E3.06768
G1 X124.817 Y101.559 E3.13439
G1 X124.651 Y102.67 E3.1867
G1 X124.391 Y104.156 E3.25694
G1 X124.135 Y105.431 E3.3175
G1 X123.866 Y106.645 E3.3754
G1 X123.565 Y107.875 E3.43436
G1 X123.261 Y109.028 E3.48988
G1 X122.876 Y110.381 E3.55539
G1 X122.423 Y111.858 E3.62732
G1 X121.947 Y113.306 E3.6983
G1 X121.689 Y114.05 E3.73497
G1 X121.213 Y115.374 E3.80048
G1 X120.631 Y116.899 E3.87649
G1 X120.161 Y118.077 E3.93554
G1 X119.78 Y118.994 E3.98178
G1 X119.333 Y120.038 E4.03466
G1 X118.818 Y121.198 E4.09376
G1 X118.293 Y122.339 E4.15225
G1 X117.728 Y123.526 E4.21346
G1 X117.119 Y124.76 E4.27754
G1 X116.671 Y125.638 E4.32343
G1 X116.126 Y126.678 E4.37811
G1 X115.656 Y127.549 E4.42419
G1 X115.089 Y128.572 E4.47866
G1 X114.292 Y129.953 E4.5529
G1 X113.484 Y131.279 E4.62521
G1 X112.643 Y132.598 E4.69805
G1 X112.076 Y133.438 E4.74524
G1 X111.726 Y133.928 E4.77328
G1 X111.276 Y134.484 E4.80658
G1 X110.829 Y134.94 E4.83632
G1 X110.021 Y135.614 E4.88531
G1 X109.576 Y135.927 E4.91064
G1 X108.969 Y136.305 E4.94394
G1 X107.864 Y136.797 E5.00026
G1 X106.947 Y137.063 E5.04472
G1 X106.145 Y137.211 E5.0827
G1 X105.227 Y137.291 E5.12561
G1 X104.198 Y137.256 E5.17355
G1 X103.253 Y137.11 E5.21807
G1 X102.482 Y136.894 E5.25536
G1 X101.982 Y136.72 E5.28001
G1 X101.32 Y136.448 E5.31334
G1 X100.286 Y135.851 E5.36893
G1 X99.221 Y134.994 E5.43258
G1 X98.467 Y134.201 E5.48354
G1 X97.955 Y133.484 E5.52456
G1 X97.254 Y132.439 E5.58316
G1 X96.443 Y131.171 E5.65324
G1 X95.742 Y130.01 E5.71639
G1 X95.173 Y129.033 E5.76904
G1 X94.571 Y127.962 E5.82625
G1 X93.715 Y126.377 E5.91013
G1 X93.162 Y125.311 E5.96605
G1 X92.668 Y124.332 E6.01711
G1 X92.129 Y123.229 E6.07427
G1 X91.609 Y122.129 E6.13093
G1 X90.921 Y120.618 E6.20824
G1 X90.386 Y119.387 E6.27074
G1 X89.882 Y118.181 E6.3316
G1 X89.418 Y117.023 E6.38969
G1 X88.947 Y115.8 E6.45071
G1 X88.528 Y114.664 E6.50709
G1 X88.001 Y113.149 E6.58179
G1 X87.731 Y112.336 E6.62168
G1 X87.351 Y111.133 E6.68042
G1 X86.949 Y109.774 E6.74641
G1 X86.522 Y108.208 E6.82199
G1 X86.151 Y106.708 E6.89394
G1 X85.895 Y105.566 E6.94844
G1 X85.606 Y104.142 E7.0161
G1 X85.403 Y102.996 E7.07029
G1 X85.172 Y101.473 E7.14202
G1 X85.015 Y100.191 E7.20216
G1 X84.902 Y99.026 E7.25666
G1 X84.801 Y97.537 E7.32616
G1 X84.757 Y96.239 E7.38663
G1 X84.751 Y95.159 E7.43692
G1 X84.793 Y93.712 E7.50433
G1 X84.86 Y92.662 E7.55332
G1 X85.007 Y91.201 E7.6217
G1 X85.182 Y89.975 E7.67936
G1 X85.341 Y89.087 E7.72137
G1 X85.605 Y87.87 E7.77935
G1 X85.954 Y86.532 E7.84374
M204 S3000
M205 X10 Y10
G1 F2400 E1.84374
G0 F3000 X85.313 Y94.954
M204 S1800
M205 X8 Y8
G1 F2400 E7.84374
G1 X85.342 Y93.951 E7.89047
G1 X85.419 Y92.698 E7.94892
G1 X85.535 Y91.5 E8.00497
G1 X85.733 Y90.074 E8.072
G1 X85.892 Y89.186 E8.11401
G1 X86.209 Y87.753 E8.18235
G1 X86.495 Y86.675 E8.23428
G1 X86.72 Y85.913 E8.27128
G1 X87.126 Y84.77 E8.32776
G1 X87.422 Y84.028 E8.36496
G1 X88.055 Y82.645 E8.43578
G1 X88.304 Y82.141 E8.46196
G1 X88.764 Y81.302 E8.50651
G1 X89.494 Y80.147 E8.57013
G1 X90.248 Y79.053 E8.632
G1 X91.329 Y77.734 E8.71141
G1 X92.226 Y76.808 E8.77144
G1 X92.606 Y76.438 E8.79614
G1 X93.371 Y75.754 E8.84392
G1 X94.091 Y75.223 E8.88558
G1 X94.678 Y74.811 E8.91898
G1 X95.485 Y74.327 E8.96279
G1 X96.292 Y73.943 E9.00441
G1 X96.791 Y73.743 E9.02944
G1 X97.439 Y73.527 E9.06125
G1 X98.259 Y73.351 E9.1003
G1 X99.281 Y73.251 E9.14811
G1 X102.028 Y73.375 E9.27616
G1 X104.691 Y73.425 E9.40018
G1 X107.392 Y73.4 E9.52595
G1 X109.601 Y73.321 E9.62888
G1 X110.548 Y73.278 E9.67302
G1 X111.231 Y73.287 E9.70483
G1 X111.909 Y73.376 E9.73667
G1 X112.667 Y73.555 E9.77293
G1 X113.702 Y73.94 E9.82436
G1 X114.205 Y74.176 E9.85023
G1 X114.781 Y74.487 E9.88071
G1 X115.292 Y74.801 E9.90864
G1 X115.908 Y75.203 E9.94289
G1 X116.545 Y75.703 E9.98059
G1 X117.276 Y76.316 E10.02502
G1 X118.136 Y77.181 E10.08181
G1 X118.741 Y77.83 E10.12313
G1 X119.352 Y78.562 E10.16753
G1 X119.873 Y79.238 E10.20727
G1 X120.23 Y79.737 E10.23584
G1 X120.748 Y80.518 E10.27948
G1 X121.238 Y81.33 E10.32364
G1 X121.796 Y82.358 E10.3781
G1 X122.412 Y83.617 E10.44337
G1 X123.017 Y85.187 E10.52171
G1 X123.349 Y86.175 E10.57025
G1 X123.658 Y87.236 E10.6217
G1 X123.92 Y88.294 E10.67246
G1 X124.149 Y89.396 E10.72487
G1 X124.342 Y90.552 E10.77944
G1 X124.468 Y91.515 E10.82466
G1 X124.576 Y92.613 E10.87604
G1 X124.653 Y93.833 E10.93296
G1 X124.689 Y95.245 E10.99873
G1 X124.678 Y96.492 E11.0568
G1 X124.639 Y97.532 E11.10526
G1 X124.561 Y98.737 E11.16149
G1 X124.417 Y100.237 E11.23165
G1 X124.263 Y101.476 E11.28979
G1 X124.074 Y102.73 E11.34884
G1 X123.868 Y103.908 E11.40453
G1 X123.612 Y105.197 E11.46572
G1 X123.322 Y106.512 E11.52842
G1 X123.05 Y107.627 E11.58186
G1 X122.719 Y108.885 E11.64244
G1 X122.34 Y110.216 E11.70688
G1 X121.851 Y111.806 E11.78434
G1 X121.417 Y113.123 E11.8489
G1 X121.162 Y113.861 E11.88526
G1 X120.729 Y115.068 E11.94497
G1 X120.111 Y116.692 E12.02588
G1 X119.644 Y117.862 E12.08454
G1 X119.265 Y118.774 E12.13053
G1 X118.821 Y119.811 E12.18306
G1 X118.309 Y120.964 E12.2418
G1 X117.787 Y122.098 E12.29993
G1 X117.186 Y123.359 E12.36498
G1 X116.62 Y124.505 E12.42449
G1 X116.175 Y125.378 E12.47012
G1 X115.633 Y126.413 E12.52452
G1 X115.166 Y127.278 E12.57029
G1 X114.604 Y128.292 E12.62428
G1 X113.734 Y129.796 E12.70518
G1 X113.012 Y130.978 E12.76968
G1 X112.266 Y132.151 E12.83441
G1 X111.342 Y133.52 E12.91131
G1 X110.542 Y134.453 E12.96854
G1 X109.699 Y135.156 E13.01965
G1 X109.254 Y135.469 E13.04499
G1 X108.673 Y135.828 E13.07679
G1 X107.672 Y136.272 E13.12778
G1 X106.792 Y136.524 E13.1704
G1 X105.861 Y136.675 E13.21432
G1 X105.18 Y136.732 E13.24614
G1 X104.244 Y136.698 E13.28976
G1 X103.339 Y136.556 E13.33241
G1 X102.666 Y136.366 E13.36497
G1 X102.166 Y136.192 E13.38963
G1 X101.535 Y135.93 E13.42144
G1 X100.598 Y135.386 E13.47189
G1 X99.6 Y134.581 E13.5316
G1 X98.891 Y133.831 E13.57965
G1 X98.42 Y133.172 E13.61737
G1 X97.65 Y132.022 E13.68181
G1 X97.001 Y131.008 E13.73787
G1 X96.226 Y129.728 E13.80755
G1 X95.661 Y128.759 E13.85978
G1 X95.059 Y127.688 E13.91699
G1 X94.162 Y126.025 E14.00497
G1 X93.662 Y125.059 E14.05562
G1 X93.171 Y124.086 E14.10637
G1 X92.668 Y123.058 E14.15966
G1 X92.119 Y121.897 E14.21946
G1 X91.389 Y120.292 E14.30156
G1 X90.903 Y119.171 E14.35846
G1 X90.402 Y117.972 E14.41896
G1 X89.941 Y116.822 E14.47666
G1 X89.473 Y115.606 E14.53733
G1 X89.017 Y114.368 E14.59876
G1 X88.532 Y112.972 E14.66757
G1 X88.265 Y112.167 E14.70707
G1 X87.885 Y110.964 E14.76581
G1 X87.451 Y109.493 E14.83723
G1 X87.062 Y108.061 E14.90632
G1 X86.697 Y106.585 E14.97712
G1 X86.417 Y105.331 E15.03695
G1 X86.185 Y104.191 E15.09112
G1 X85.931 Y102.758 E15.15889
G1 X85.749 Y101.561 E15.21527
G1 X85.572 Y100.137 E15.28208
G1 X85.445 Y98.804 E15.34444
G1 X85.37 Y97.701 E15.39591
G1 X85.317 Y96.235 E15.46422
G1 X85.313 Y94.954 E15.52387
M204 S3000
M205 X10 Y10
G0 F3000 X85.871 Y95.152
M204 S1800
M205 X8 Y8
G1 F2400 X85.902 Y93.967 E15.57907
G1 X85.993 Y92.544 E15.64546
G1 X86.116 Y91.355 E15.70112
G1 X86.252 Y90.376 E15.74715
G1 X86.485 Y89.076 E15.80865
G1 X86.698 Y88.112 E15.85462
G1 X87.082 Y86.657 E15.92469
G1 X87.293 Y85.972 E15.95806
G1 X87.568 Y85.186 E15.99684
G1 X87.929 Y84.264 E16.04294
G1 X88.644 Y82.711 E16.12255
G1 X88.912 Y82.188 E16.14992
G1 X89.32 Y81.471 E16.18833
G1 X89.955 Y80.464 E16.24377
G1 X90.692 Y79.393 E16.3043
G1 X91.746 Y78.109 E16.38166
G1 X92.629 Y77.197 E16.44077
G1 X92.994 Y76.842 E16.46447
G1 X93.724 Y76.19 E16.51005
G1 X94.413 Y75.681 E16.54994
G1 X94.982 Y75.281 E16.58232
G1 X95.761 Y74.815 E16.62459
G1 X96.501 Y74.463 E16.66275
G1 X97 Y74.263 E16.68778
G1 X97.616 Y74.059 E16.718
G1 X98.359 Y73.903 E16.75335
G1 X99.305 Y73.813 E16.7976
G1 X102.03 Y73.936 E16.92462
G1 X104.686 Y73.985 E17.04831
G1 X107.378 Y73.96 E17.17367
G1 X109.643 Y73.879 E17.2792
G1 X110.574 Y73.837 E17.3226
G1 X111.223 Y73.848 E17.35282
G1 X111.866 Y73.938 E17.38305
G1 X112.653 Y74.145 E17.42095
G1 X113.464 Y74.447 E17.46124
G1 X113.967 Y74.683 E17.48712
G1 X114.488 Y74.964 E17.51468
G1 X115.256 Y75.436 E17.55665
G1 X115.757 Y75.797 E17.58541
G1 X116.199 Y76.144 E17.61157
G1 X116.902 Y76.734 E17.65431
G1 X117.739 Y77.576 E17.70959
G1 X118.242 Y78.116 E17.74396
G1 X118.91 Y78.906 E17.79213
G1 X119.417 Y79.564 E17.83081
G1 X119.894 Y80.237 E17.86922
G1 X120.402 Y81.021 E17.91272
G1 X120.861 Y81.8 E17.95482
G1 X121.293 Y82.604 E17.99732
G1 X121.897 Y83.839 E18.06134
G1 X122.487 Y85.368 E18.13765
G1 X122.812 Y86.334 E18.18511
G1 X123.115 Y87.372 E18.23546
G1 X123.328 Y88.219 E18.27613
G1 X123.557 Y89.281 E18.32672
G1 X123.756 Y90.422 E18.38065
G1 X123.933 Y91.773 E18.44409
G1 X124.033 Y92.85 E18.49446
G1 X124.094 Y93.867 E18.5419
G1 X124.129 Y95.242 E18.60595
G1 X124.122 Y96.308 E18.65558
G1 X124.079 Y97.511 E18.71164
G1 X123.99 Y98.854 E18.77431
G1 X123.877 Y100.029 E18.82927
G1 X123.709 Y101.393 E18.89327
G1 X123.522 Y102.634 E18.95171
G1 X123.293 Y103.937 E19.01331
G1 X123.063 Y105.088 E19.06796
G1 X122.778 Y106.379 E19.12953
G1 X122.482 Y107.589 E19.18753
G1 X122.178 Y108.742 E19.24305
G1 X121.836 Y109.948 E19.30142
G1 X121.32 Y111.631 E19.38339
G1 X120.914 Y112.865 E19.44388
G1 X120.635 Y113.672 E19.48364
G1 X120.202 Y114.879 E19.54335
G1 X119.619 Y116.412 E19.61972
G1 X119.127 Y117.648 E19.68167
G1 X118.31 Y119.584 E19.77952
G1 X117.801 Y120.73 E19.8379
G1 X117.311 Y121.795 E19.89249
G1 X116.684 Y123.112 E19.96041
G1 X116.121 Y124.251 E20.01958
G1 X115.678 Y125.119 E20.06495
G1 X115.14 Y126.147 E20.11898
G1 X114.676 Y127.007 E20.16448
G1 X114.119 Y128.012 E20.21799
G1 X113.322 Y129.393 E20.29223
G1 X112.591 Y130.594 E20.3577
G1 X111.714 Y131.971 E20.43372
G1 X110.884 Y133.196 E20.50262
G1 X110.149 Y134.054 E20.55523
G1 X109.377 Y134.698 E20.60204
G1 X108.932 Y135.011 E20.62737
G1 X108.378 Y135.351 E20.65764
G1 X107.477 Y135.746 E20.70345
G1 X106.638 Y135.984 E20.74406
G1 X105.781 Y136.121 E20.78447
G1 X105.134 Y136.173 E20.81469
G1 X104.287 Y136.14 E20.85416
G1 X103.428 Y136.002 E20.89468
G1 X102.85 Y135.837 E20.92266
G1 X102.35 Y135.663 E20.94732
G1 X101.75 Y135.412 E20.9776
G1 X100.912 Y134.922 E21.0228
G1 X99.979 Y134.171 E21.07857
G1 X99.318 Y133.465 E21.12361
G1 X98.885 Y132.86 E21.15825
G1 X98.184 Y131.815 E21.21684
G1 X97.402 Y130.592 E21.28444
G1 X96.709 Y129.445 E21.34684
G1 X96.149 Y128.484 E21.39863
G1 X95.503 Y127.334 E21.46005
G1 X94.7 Y125.846 E21.53878
G1 X94.162 Y124.807 E21.59326
G1 X93.674 Y123.84 E21.6437
G1 X93.171 Y122.812 E21.69699
G1 X92.629 Y121.665 E21.75606
G1 X91.903 Y120.069 E21.83771
G1 X91.42 Y118.955 E21.89424
G1 X90.922 Y117.764 E21.95436
G1 X90.464 Y116.62 E22.01174
G1 X89.998 Y115.412 E22.07203
G1 X89.546 Y114.184 E22.13296
G1 X89.064 Y112.796 E22.20137
G1 X88.799 Y111.998 E22.24053
G1 X88.39 Y110.7 E22.3039
G1 X88.023 Y109.457 E22.36425
G1 X87.572 Y107.797 E22.44434
G1 X87.27 Y106.575 E22.50296
G1 X86.966 Y105.219 E22.56767
G1 X86.709 Y103.947 E22.62809
G1 X86.485 Y102.674 E22.68828
G1 X86.283 Y101.334 E22.75138
G1 X86.145 Y100.224 E22.80347
G1 X86.004 Y98.766 E22.87167
G1 X85.92 Y97.497 E22.93089
G1 X85.88 Y96.395 E22.98224
G1 X85.871 Y95.152 E23.04012
M204 S3000
M205 X10 Y10
G1 F2400 E17.04012
;MESH:1.stl
G0 F3000 X91.077 Y89.591
G0 X92.14 Y89.802
G0 X95.658 Y85.767
M204 S1800
M205 X8 Y8
;TYPE:WALL-INNER
G1 F2400 E23.04012
G1 F1055.3 X95.963 Y85.021 E23.09346
G1 F1153.8 X96.23 Y84.421 E23.13322
G1 F1282.4 X96.524 Y83.803 E23.17049
G1 F1363.6 X96.982 Y82.742 E23.22968
G1 X97.34 Y81.958 E23.27383
G1 X97.086 Y82.211 E23.29219
G1 X96.735 Y82.589 E23.31861
G1 X96.385 Y83.001 E23.3463
G1 X95.992 Y83.502 E23.37892
G1 F1300.3 X95.703 Y83.96 E23.40801
G1 F1184.8 X95.386 Y84.503 E23.44507
G1 F1090.9 X95.075 Y85.081 E23.4871
G1 F1031.9 X94.902 Y85.437 E23.51389
G1 F1208.6 X94.589 Y85.748 E23.53939
G1 F1500 X94.346 Y86.245 E23.56515
G1 X94.042 Y86.948 E23.60081
G1 X93.77 Y87.659 E23.63626
G1 X93.523 Y88.409 E23.67303
G1 X93.31 Y89.15 E23.70893
G1 X93.1 Y90.01 E23.75015
G1 X92.922 Y90.896 E23.79223
G1 X92.776 Y91.839 E23.83666
G1 X92.676 Y92.694 E23.87675
G1 X92.595 Y93.703 E23.92388
G1 X92.554 Y94.634 E23.96727
G1 X92.541 Y95.645 E24.01435
G1 X92.565 Y96.69 E24.06303
G1 X92.621 Y97.759 E24.11287
G1 X92.711 Y98.835 E24.16315
G1 X92.833 Y99.94 E24.21492
G1 X92.99 Y101.064 E24.26776
G1 X93.178 Y102.201 E24.32143
G1 X93.396 Y103.353 E24.37602
G1 X93.643 Y104.5 E24.43065
G1 X93.924 Y105.682 E24.48723
G1 F1205.2 X94.155 Y106.032 E24.51153
G1 F1019.4 X94.351 Y106.817 E24.56697
G1 F1039.6 X94.51 Y107.404 E24.60783
G1 F1057.9 X94.669 Y107.992 E24.64804
G1 F1079.7 X94.856 Y108.642 E24.69179
G1 F1108.2 X95.044 Y109.293 E24.7345
G1 F1130.6 X95.206 Y109.816 E24.76833
G1 F1149.1 X95.369 Y110.34 E24.80168
G1 F1174.8 X95.559 Y110.923 E24.83814
G1 F1205.2 X95.75 Y111.507 E24.87375
G1 F1237.1 X95.95 Y112.085 E24.90828
G1 F1267 X96.151 Y112.664 E24.94207
G1 F1310.5 X96.432 Y113.446 E24.98636
G1 F1357 X96.619 Y113.945 E25.01379
G1 F1390.7 X96.807 Y114.444 E25.04057
G1 F1426.1 X96.995 Y114.943 E25.06668
G1 F1468.5 X97.216 Y115.5 E25.09518
G1 F1521.7 X97.436 Y116.057 E25.12267
G1 F1576 X97.638 Y116.546 E25.14612
G1 F1634.2 X97.841 Y117.036 E25.16879
G1 F1697 X98.044 Y117.526 E25.19062
G1 F1173.2 X98.416 Y117.798 E25.21805
G1 X98.493 Y117.344 E25.24547
G1 F1697 X98.299 Y116.818 E25.26855
G1 F1634.2 X98.104 Y116.292 E25.29252
G1 F1578.9 X97.909 Y115.766 E25.31734
G1 F1524.5 X97.715 Y115.24 E25.34302
G1 F1476.3 X97.54 Y114.733 E25.3684
G1 F1435.9 X97.364 Y114.224 E25.3946
