;FLAVOR:Marlin
;TIME:19866
;Filament used: 23.8091m
;Layer height: 0.2
;MINX:13.622
;MINY:11.1
;MINZ:0.2
;MAXX:196.38
;MAXY:198.876
;MAXZ:30
;Generated with Cura_SteamEngine main
M140 S60
M105
M190 S60
M104 S200
M105
M109 S200
M82 ;absolute extrusion mode
G21 ;metric values
G90 ;absolute positioning
M82 ;set extruder to absolute mode
M107 ;start with the fan off
G28 X0 Y0 ;move X/Y to min endstops
G28 Z0 ;move Z to min endstops
G1 Z15.0 F100 ;move the platform down 15mm
G92 E0 ;zero the extruded length
G1 F200 E3 ;extrude 3mm of feed stock
G92 E0 ;zero the extruded length again
G1 F100
G0 Y20 F100
M117 Printing...
G5
G92 E0
G92 E0
G1 F2400 E-6
;LAYER_COUNT:150
;LAYER:0
M107
M204 S3000
M205 X10 Y10
G1 F600 Z0.275
G0 F3000 X45.765 Y36.806 Z0.275
G1 F600 Z0.2
G0 F3000 X42.913 Y40.623
M204 S1800
M205 X8 Y8
;TYPE:SKIRT
G1 F2400 E0
G1 X43.604 Y39.644 E0.0558
G1 X45.082 Y37.679 E0.17029
G1 X45.765 Y36.806 E0.2219
G1 X47.326 Y34.935 E0.33536
G1 X47.857 Y34.319 E0.37323
G1 X49.649 Y32.38 E0.49618
G1 X50.316 Y31.686 E0.541
G1 X50.781 Y31.226 E0.57145
G1 X52.072 Y29.979 E0.65503
G1 X52.627 Y29.457 E0.69051
G1 X53.687 Y28.524 E0.75626
G1 X54.219 Y28.077 E0.78862
G1 X54.791 Y27.648 E0.82191
G1 X55.666 Y27.161 E0.86854
G1 X58.314 Y25.945 E1.00422
G1 X60.718 Y24.757 E1.12909
G1 X63.036 Y23.528 E1.25126
G1 X65.344 Y22.219 E1.37481
G1 X67.601 Y20.853 E1.49765
G1 X69.834 Y19.415 E1.62132
G1 X72.031 Y17.908 E1.74538
G1 X73.108 Y17.132 E1.80719
G1 X73.822 Y16.694 E1.8462
G1 X74.744 Y16.278 E1.89329
G1 X76.303 Y15.754 E1.96988
G1 X78.407 Y15.096 E2.07253
G1 X79.258 Y14.849 E2.11379
G1 X81.105 Y14.349 E2.20289
G1 X82.152 Y14.087 E2.25315
G1 X83.928 Y13.675 E2.33804
G1 X84.887 Y13.47 E2.3837
G1 X86.562 Y13.139 E2.46321
G1 X87.513 Y12.967 E2.50821
G1 X89.536 Y12.644 E2.6036
G1 X93.125 Y12.146 E2.77232
G1 X94.234 Y12.011 E2.82434
G1 X98.027 Y11.66 E3.00172
G1 X100.068 Y11.509 E3.09701
G1 X103.377 Y11.325 E3.25133
G1 X104.912 Y11.262 E3.32287
G1 X108.54 Y11.162 E3.49187
G1 X109.512 Y11.144 E3.53713
G1 X114.09 Y11.103 E3.75031
G1 X189.271 Y11.1 E7.25106
G1 X190.062 Y11.111 E7.28789
G1 X190.775 Y11.161 E7.32117
G1 X191.478 Y11.29 E7.35446
G1 X192.163 Y11.497 E7.38778
G1 X192.82 Y11.78 E7.42109
G1 X193.442 Y12.134 E7.45441
G1 X194.02 Y12.555 E7.48771
G1 X194.548 Y13.037 E7.521
G1 X195.018 Y13.576 E7.5543
G1 X195.426 Y14.164 E7.58762
G1 X195.765 Y14.794 E7.62094
G1 X196.032 Y15.457 E7.65422
G1 X196.223 Y16.147 E7.68755
G1 X196.336 Y16.853 E7.72085
G1 X196.379 Y17.81 E7.76545
G1 X196.38 Y31.843 E8.41889
G1 X196.371 Y32.57 E8.45274
G1 X196.322 Y33.284 E8.48607
G1 X196.194 Y33.988 E8.51939
G1 X195.988 Y34.673 E8.5527
G1 X195.707 Y35.33 E8.58597
G1 X195.354 Y35.953 E8.61931
G1 X194.934 Y36.532 E8.65262
G1 X194.452 Y37.06 E8.68591
G1 X193.915 Y37.532 E8.7192
G1 X193.327 Y37.94 E8.75252
G1 X192.698 Y38.281 E8.78584
G1 X192.035 Y38.549 E8.81914
G1 X191.346 Y38.741 E8.85244
G1 X190.494 Y38.88 E8.89264
G1 X189.65 Y38.9 E8.93195
G1 X140.749 Y38.9 E11.20899
G1 X138.087 Y38.938 E11.33295
G1 X135.447 Y39.05 E11.45599
G1 X132.802 Y39.237 E11.57946
G1 X130.145 Y39.501 E11.70379
G1 X127.53 Y39.835 E11.82655
G1 X124.934 Y40.243 E11.94891
G1 X122.327 Y40.728 E12.07239
G1 X119.719 Y41.289 E12.19661
G1 X117.198 Y41.906 E12.31746
G1 X114.611 Y42.618 E12.4424
G1 X112.055 Y43.401 E12.56688
G1 X109.588 Y44.233 E12.68811
G1 X107.066 Y45.163 E12.81327
G1 X104.618 Y46.147 E12.93613
G1 X102.205 Y47.197 E13.05866
G1 X99.793 Y48.327 E13.18269
G1 X97.443 Y49.511 E13.30522
G1 X95.095 Y50.779 E13.42948
G1 X92.822 Y52.09 E13.55166
G1 X90.562 Y53.48 E13.67521
G1 X88.361 Y54.921 E13.79771
G1 X86.151 Y56.461 E13.92313
G1 X84.056 Y58.009 E14.04443
G1 X81.95 Y59.658 E14.16897
G1 X79.924 Y61.341 E14.29162
G1 X77.94 Y63.086 E14.41465
G1 X75.983 Y64.906 E14.53909
G1 X74.123 Y66.739 E14.66069
G1 X72.28 Y68.66 E14.78465
G1 X70.5 Y70.624 E14.90807
G1 X68.779 Y72.633 E15.03125
G1 X67.111 Y74.698 E15.15486
G1 X65.493 Y76.82 E15.27911
G1 X63.979 Y78.925 E15.39985
G1 X62.472 Y81.151 E15.52502
G1 X61.05 Y83.386 E15.64837
G1 X59.716 Y85.621 E15.76957
G1 X58.399 Y87.973 E15.89509
G1 X57.184 Y90.297 E16.0172
G1 X56.021 Y92.684 E16.14084
G1 X54.938 Y95.074 E16.26302
G1 X53.904 Y97.543 E16.38766
G1 X52.934 Y100.051 E16.51288
G1 X52.074 Y102.482 E16.63295
G1 X51.256 Y105.015 E16.7569
G1 X50.51 Y107.573 E16.88097
G1 X49.841 Y110.133 E17.00418
G1 X49.25 Y112.69 E17.12638
G1 X48.723 Y115.309 E17.25078
G1 X48.274 Y117.907 E17.37354
G1 X47.964 Y120.028 E17.47335
G1 X47.767 Y121.54 E17.54435
G1 X46.992 Y127.878 E17.84168
G1 X46.2 Y135.048 E18.17757
G1 X45.545 Y141.501 E18.47959
G1 X44.844 Y148.815 E18.82173
G1 X44.186 Y156.227 E19.16822
G1 X43.518 Y164.336 E19.54709
G1 X42.849 Y173.064 E19.95469
G1 X41.404 Y192.368 E20.85608
G1 X41.343 Y193.049 E20.88792
G1 X41.24 Y193.757 E20.92123
G1 X41.058 Y194.448 E20.9545
G1 X40.8 Y195.116 E20.98785
G1 X40.469 Y195.75 E21.02115
G1 X40.07 Y196.343 E21.05443
G1 X39.607 Y196.888 E21.08773
G1 X39.086 Y197.378 E21.12104
G1 X38.513 Y197.807 E21.15437
G1 X37.897 Y198.169 E21.18764
G1 X37.243 Y198.46 E21.22097
G1 X36.561 Y198.677 E21.25429
G1 X35.86 Y198.816 E21.28757
G1 X35.147 Y198.876 E21.32089
G1 X34.637 Y198.869 E21.34464
G1 X33.463 Y198.807 E21.39938
G1 X20.177 Y197.837 E22.01968
G1 X19.481 Y197.777 E22.05221
G1 X18.773 Y197.676 E22.08551
G1 X18.081 Y197.497 E22.11879
G1 X17.413 Y197.241 E22.1521
G1 X16.778 Y196.912 E22.1854
G1 X16.183 Y196.515 E22.21871
G1 X15.636 Y196.054 E22.25202
G1 X15.145 Y195.534 E22.28532
G1 X14.714 Y194.963 E22.31863
G1 X14.35 Y194.348 E22.35191
G1 X14.056 Y193.695 E22.38526
G1 X13.838 Y193.014 E22.41855
G1 X13.696 Y192.313 E22.45186
G1 X13.622 Y191.458 E22.49182
G1 X13.661 Y190.621 E22.53083
G1 X14.596 Y177.971 E23.12148
G1 X14.664 Y176.943 E23.16945
G1 X15.18 Y170.148 E23.48677
G1 X15.878 Y161.226 E23.90348
G1 X16.764 Y150.766 E24.39229
G1 X17.601 Y141.546 E24.82337
G1 X18.625 Y131.38 E25.29914
G1 X19.697 Y121.997 E25.73889
G1 X20.824 Y113.237 E26.15016
G1 X20.943 Y112.372 E26.19082
G1 X22.091 Y104.499 E26.56129
G1 X22.816 Y99.999 E26.77353
G1 X23.536 Y95.844 E26.96989
G1 X23.712 Y94.87 E27.01598
G1 X24.531 Y90.575 E27.21958
G1 X25.29 Y86.86 E27.39614
G1 X26.123 Y83.042 E27.5781
G1 X26.315 Y82.2 E27.61831
G1 X27.126 Y78.804 E27.78089
G1 X28.059 Y75.187 E27.95483
G1 X28.313 Y74.245 E28.00026
G1 X29.156 Y71.244 E28.1454
G1 X29.487 Y70.114 E28.20023
G1 X30.245 Y67.634 E28.32099
G1 X30.698 Y66.224 E28.38995
G1 X31.444 Y64.003 E28.49904
G1 X31.983 Y62.476 E28.57445
G1 X32.732 Y60.443 E28.67533
G1 X33.298 Y58.975 E28.74859
G1 X34.139 Y56.898 E28.85293
G1 X34.797 Y55.35 E28.93126
G1 X35.493 Y53.783 E29.0111
G1 X36.476 Y51.69 E29.11877
G1 X37.143 Y50.34 E29.18889
G1 X38.256 Y48.208 E29.30087
G1 X39.07 Y46.728 E29.37952
G1 X39.657 Y45.699 E29.43469
G1 X40.939 Y43.601 E29.54917
G1 X41.613 Y42.541 E29.60766
G1 X42.913 Y40.623 E29.71556
M204 S3000
M205 X10 Y10
G1 F2400 E23.71556
G0 F3000 X39.557 Y47.004
M204 S1800
M205 X8 Y8
G1 F2400 E29.71556
G1 X40.135 Y45.991 E29.76986
G1 X41.413 Y43.9 E29.88398
G1 X42.077 Y42.855 E29.94163
G1 X43.431 Y40.858 E30.05397
G1 X43.94 Y40.133 E30.09522
G1 X45.524 Y38.022 E30.21811
G1 X46.067 Y37.323 E30.25933
G1 X47.751 Y35.301 E30.38186
G1 X48.42 Y34.53 E30.42939
G1 X50.054 Y32.767 E30.54132
G1 X50.711 Y32.083 E30.58548
G1 X51.17 Y31.628 E30.61558
G1 X52.456 Y30.387 E30.6988
G1 X53.16 Y29.729 E30.74367
G1 X53.952 Y29.034 E30.79273
G1 X54.579 Y28.506 E30.8309
G1 X55.127 Y28.098 E30.86271
G1 X55.899 Y27.67 E30.90381
G1 X58.559 Y26.449 E31.0401
G1 X60.95 Y25.267 E31.1643
G1 X63.324 Y24.008 E31.28942
G1 X65.632 Y22.699 E31.41298
G1 X67.901 Y21.326 E31.53647
G1 X70.151 Y19.877 E31.66108
G1 X72.346 Y18.371 E31.78504
G1 X73.43 Y17.59 E31.84725
G1 X74.115 Y17.172 E31.88461
G1 X74.932 Y16.806 E31.9263
G1 X76.482 Y16.285 E32.00244
G1 X78.563 Y15.633 E32.10399
G1 X79.299 Y15.419 E32.13968
G1 X81.251 Y14.89 E32.23385
G1 X82.278 Y14.633 E32.28315
G1 X84.045 Y14.223 E32.36761
G1 X84.996 Y14.02 E32.41289
G1 X86.756 Y13.673 E32.49642
G1 X87.601 Y13.52 E32.53641
G1 X89.743 Y13.179 E32.6374
G1 X93.194 Y12.701 E32.79963
G1 X94.105 Y12.588 E32.84238
G1 X98.185 Y12.209 E33.03318
G1 X100.099 Y12.068 E33.12254
G1 X103.4 Y11.885 E33.27649
G1 X104.927 Y11.822 E33.34765
G1 X108.55 Y11.722 E33.51642
G1 X109.517 Y11.704 E33.56145
G1 X114.09 Y11.663 E33.7744
G1 X189.271 Y11.66 E37.27514
G1 X190.054 Y11.671 E37.3116
G1 X190.735 Y11.72 E37.3434
G1 X191.406 Y11.849 E37.37521
G1 X192.057 Y12.056 E37.40702
G1 X192.68 Y12.337 E37.43884
G1 X193.266 Y12.689 E37.47068
G1 X193.806 Y13.107 E37.50247
G1 X194.294 Y13.585 E37.53428
G1 X194.723 Y14.117 E37.5661
G1 X195.087 Y14.695 E37.59791
G1 X195.38 Y15.312 E37.62972
G1 X195.6 Y15.959 E37.66154
G1 X195.743 Y16.627 E37.69335
G1 X195.819 Y17.467 E37.73262
G1 X195.82 Y31.836 E38.4017
G1 X195.811 Y32.563 E38.43556
G1 X195.762 Y33.245 E38.46739
G1 X195.634 Y33.916 E38.4992
G1 X195.429 Y34.568 E38.53103
G1 X195.149 Y35.191 E38.56283
G1 X194.799 Y35.777 E38.59462
G1 X194.382 Y36.319 E38.62646
G1 X193.905 Y36.808 E38.65827
G1 X193.374 Y37.237 E38.69005
G1 X192.796 Y37.602 E38.72189
G1 X192.18 Y37.897 E38.75369
G1 X191.533 Y38.118 E38.78552
G1 X190.865 Y38.262 E38.81734
G1 X190.015 Y38.34 E38.85709
G1 X140.741 Y38.34 E41.15149
G1 X138.09 Y38.377 E41.27495
G1 X135.383 Y38.492 E41.40111
G1 X132.78 Y38.677 E41.52262
G1 X130.088 Y38.944 E41.64859
G1 X127.441 Y39.283 E41.77285
G1 X124.848 Y39.69 E41.89507
G1 X122.19 Y40.184 E42.02096
G1 X119.597 Y40.742 E42.14446
G1 X117.06 Y41.363 E42.26608
G1 X114.443 Y42.084 E42.39248
G1 X111.924 Y42.855 E42.51515
G1 X109.36 Y43.72 E42.64115
G1 X106.871 Y44.638 E42.76468
G1 X104.436 Y45.616 E42.88687
G1 X101.965 Y46.691 E43.01234
G1 X99.555 Y47.821 E43.13629
G1 X97.147 Y49.033 E43.26182
G1 X94.842 Y50.278 E43.3838
G1 X92.542 Y51.605 E43.50745
G1 X90.265 Y53.005 E43.63191
G1 X88.029 Y54.47 E43.75639
G1 X85.857 Y55.982 E43.87962
G1 X83.697 Y57.578 E44.00467
G1 X81.61 Y59.214 E44.12815
G1 X79.552 Y60.922 E44.25268
G1 X77.549 Y62.684 E44.3769
G1 X75.604 Y64.493 E44.50059
G1 X73.721 Y66.348 E44.62367
G1 X71.873 Y68.274 E44.74796
G1 X70.09 Y70.242 E44.87161
G1 X68.331 Y72.296 E44.99753
G1 X66.677 Y74.343 E45.12008
G1 X65.054 Y76.472 E45.24473
G1 X63.505 Y78.626 E45.36827
G1 X62.007 Y80.839 E45.49271
G1 X60.573 Y83.092 E45.61707
G1 X59.232 Y85.338 E45.73887
G1 X57.907 Y87.705 E45.86518
G1 X56.692 Y90.029 E45.98729
G1 X55.508 Y92.458 E46.11312
G1 X54.413 Y94.877 E46.23676
G1 X53.384 Y97.332 E46.36071
G1 X52.415 Y99.839 E46.48587
G1 X51.544 Y102.3 E46.60743
G1 X50.717 Y104.863 E46.73283
G1 X49.971 Y107.419 E46.85681
G1 X49.305 Y109.968 E46.97949
G1 X48.699 Y112.59 E47.1048
G1 X48.171 Y115.213 E47.22939
G1 X47.722 Y117.811 E47.35215
G1 X47.415 Y119.915 E47.45116
G1 X47.205 Y121.52 E47.52653
G1 X46.436 Y127.81 E47.8216
G1 X45.644 Y134.986 E48.15778
G1 X44.984 Y141.48 E48.46172
G1 X44.286 Y148.761 E48.80231
G1 X43.628 Y156.177 E49.14899
G1 X42.96 Y164.29 E49.52804
G1 X42.291 Y173.021 E49.93579
G1 X40.847 Y192.318 E50.83685
G1 X40.786 Y192.999 E50.86868
G1 X40.685 Y193.675 E50.90051
G1 X40.506 Y194.334 E50.93231
G1 X40.251 Y194.968 E50.96413
G1 X39.925 Y195.568 E50.99592
G1 X39.53 Y196.126 E51.02776
G1 X39.072 Y196.633 E51.05957
G1 X38.559 Y197.084 E51.09138
G1 X37.997 Y197.472 E51.12318
G1 X37.393 Y197.791 E51.15499
G1 X36.755 Y198.038 E51.18684
G1 X36.094 Y198.209 E51.21863
G1 X35.417 Y198.301 E51.25045
G1 X34.666 Y198.31 E51.28542
G1 X33.504 Y198.249 E51.3396
G1 X20.302 Y197.286 E51.95598
G1 X19.529 Y197.219 E51.9921
G1 X18.853 Y197.121 E52.02391
G1 X18.193 Y196.944 E52.05573
G1 X17.558 Y196.692 E52.08754
G1 X16.957 Y196.367 E52.11936
G1 X16.399 Y195.974 E52.15114
G1 X15.889 Y195.518 E52.18299
G1 X15.437 Y195.006 E52.21479
G1 X15.047 Y194.445 E52.24661
G1 X14.726 Y193.842 E52.27842
G1 X14.477 Y193.206 E52.31022
G1 X14.304 Y192.545 E52.34204
G1 X14.21 Y191.868 E52.37386
G1 X14.193 Y191.023 E52.41322
G1 X15.155 Y178.013 E53.02067
G1 X15.223 Y176.986 E53.0686
G1 X15.738 Y170.191 E53.38591
G1 X16.436 Y161.273 E53.80244
G1 X17.322 Y150.816 E54.2911
G1 X18.158 Y141.602 E54.72191
G1 X19.173 Y131.521 E55.1937
G1 X20.253 Y122.068 E55.63673
G1 X21.379 Y113.313 E56.04776
G1 X21.497 Y112.452 E56.08823
G1 X22.644 Y104.588 E56.45828
G1 X23.369 Y100.088 E56.67052
G1 X24.087 Y95.944 E56.86636
G1 X24.262 Y94.974 E56.91225
G1 X25.079 Y90.687 E57.11547
G1 X25.837 Y86.979 E57.2917
G1 X26.669 Y83.166 E57.47343
G1 X26.86 Y82.33 E57.51336
G1 X27.696 Y78.832 E57.68082
G1 X28.599 Y75.333 E57.84909
G1 X28.852 Y74.396 E57.89428
G1 X29.693 Y71.401 E58.03914
G1 X30.022 Y70.278 E58.09363
G1 X30.779 Y67.805 E58.21405
G1 X31.229 Y66.403 E58.28262
G1 X31.972 Y64.19 E58.39132
G1 X32.509 Y62.669 E58.46643
G1 X33.255 Y60.644 E58.56691
G1 X33.821 Y59.176 E58.64017
G1 X34.654 Y57.117 E58.7436
G1 X35.312 Y55.569 E58.82192
G1 X36.055 Y53.899 E58.90703
G1 X36.928 Y52.041 E59.00262
G1 X37.645 Y50.588 E59.07807
G1 X38.688 Y48.587 E59.18314
G1 X39.557 Y47.004 E59.26723
M204 S3000
M205 X10 Y10
G1 F2400 E53.26723
G0 F3000 X37.48 Y52.186
M204 S1800
M205 X8 Y8
G1 F2400 E59.26723
G1 X38.2 Y50.732 E59.34278
G1 X39.184 Y48.847 E59.44179
G1 X40.044 Y47.281 E59.52499
G1 X40.613 Y46.283 E59.57848
G1 X41.886 Y44.2 E59.69215
G1 X42.54 Y43.17 E59.74896
G1 X43.89 Y41.18 E59.86094
G1 X44.499 Y40.317 E59.91012
G1 X45.966 Y38.366 E60.02378
G1 X46.509 Y37.667 E60.065
G1 X48.175 Y35.667 E60.18621
G1 X48.831 Y34.91 E60.23285
G1 X50.4 Y33.216 E60.34036
G1 X51.105 Y32.481 E60.38779
G1 X51.559 Y32.031 E60.41755
G1 X52.84 Y30.795 E60.50044
G1 X53.529 Y30.15 E60.54439
G1 X54.321 Y29.455 E60.59345
G1 X54.939 Y28.935 E60.63106
G1 X55.462 Y28.548 E60.66136
G1 X56.133 Y28.178 E60.69704
G1 X58.833 Y26.939 E60.83536
G1 X61.211 Y25.763 E60.95889
G1 X63.57 Y24.512 E61.08323
G1 X65.921 Y23.179 E61.20907
G1 X68.201 Y21.799 E61.33317
G1 X70.469 Y20.338 E61.4588
G1 X72.662 Y18.834 E61.58262
G1 X73.751 Y18.048 E61.64515
G1 X74.406 Y17.652 E61.6808
G1 X75.135 Y17.328 E61.71794
G1 X76.764 Y16.782 E61.79794
G1 X78.616 Y16.202 E61.88831
G1 X79.55 Y15.93 E61.93361
G1 X81.397 Y15.43 E62.02271
G1 X82.405 Y15.178 E62.07109
G1 X84.163 Y14.77 E62.15512
G1 X85.104 Y14.569 E62.19993
G1 X86.779 Y14.238 E62.27943
G1 X87.69 Y14.073 E62.32254
G1 X89.82 Y13.734 E62.42297
G1 X93.263 Y13.257 E62.58482
G1 X94.337 Y13.126 E62.6352
G1 X98.226 Y12.767 E62.81706
G1 X100.032 Y12.633 E62.90139
G1 X103.349 Y12.448 E63.05608
G1 X104.943 Y12.382 E63.13037
G1 X108.56 Y12.282 E63.29886
G1 X109.522 Y12.264 E63.34366
G1 X114.09 Y12.223 E63.55637
G1 X189.271 Y12.22 E67.05712
G1 X190.046 Y12.231 E67.09321
G1 X190.693 Y12.28 E67.12342
G1 X191.33 Y12.408 E67.15367
G1 X191.946 Y12.614 E67.18392
G1 X192.533 Y12.894 E67.2142
G1 X193.08 Y13.243 E67.24442
G1 X193.581 Y13.657 E67.27468
G1 X194.026 Y14.13 E67.30492
G1 X194.411 Y14.654 E67.3352
G1 X194.728 Y15.221 E67.36544
G1 X194.973 Y15.822 E67.39566
G1 X195.142 Y16.449 E67.4259
G1 X195.259 Y17.445 E67.4726
G1 X195.26 Y31.829 E68.14238
G1 X195.251 Y32.556 E68.17623
G1 X195.203 Y33.204 E68.20649
G1 X195.075 Y33.841 E68.23674
G1 X194.871 Y34.458 E68.267
G1 X194.592 Y35.045 E68.29727
G1 X194.244 Y35.593 E68.32749
G1 X193.831 Y36.094 E68.35773
G1 X193.359 Y36.541 E68.388
G1 X192.836 Y36.926 E68.41824
G1 X192.27 Y37.244 E68.44847
G1 X191.668 Y37.491 E68.47877
G1 X191.042 Y37.661 E68.50897
G1 X190.025 Y37.78 E68.55665
G1 X140.733 Y37.78 E70.85189
G1 X138.058 Y37.818 E70.97647
G1 X135.392 Y37.931 E71.10072
G1 X132.685 Y38.123 E71.22708
G1 X130.032 Y38.386 E71.35122
G1 X127.392 Y38.724 E71.47516
G1 X124.728 Y39.142 E71.60072
G1 X122.107 Y39.63 E71.72486
G1 X119.456 Y40.2 E71.85113
G1 X116.923 Y40.82 E71.97255
G1 X114.298 Y41.543 E72.09934
G1 X111.723 Y42.331 E72.22473
G1 X109.196 Y43.184 E72.34892
G1 X106.677 Y44.113 E72.47394
G1 X104.181 Y45.115 E72.59918
G1 X101.754 Y46.171 E72.72242
G1 X99.315 Y47.315 E72.84786
G1 X96.907 Y48.527 E72.97339
G1 X94.562 Y49.794 E73.0975
G1 X92.231 Y51.138 E73.2228
G1 X89.975 Y52.526 E73.34613
G1 X87.729 Y53.997 E73.47115
G1 X85.523 Y55.533 E73.59632
G1 X83.338 Y57.148 E73.72284
G1 X81.264 Y58.772 E73.8455
