;FLAVOR:Marlin
;TIME:9814
;Filament used: 13.566m
;Layer height: 0.2
;MINX:83.6
;MINY:84.473
;MINZ:0.2
;MAXX:126.4
;MAXY:118.892
;MAXZ:194.8
;Generated with Cura_SteamEngine main
M140 S60
M105
M190 S60
M104 S200
M105
M109 S200
M82 ;absolute extrusion mode
G21 ;metric values
G90 ;absolute positioning
M82 ;set extruder to absolute mode
M107 ;start with the fan off
G28 X0 Y0 ;move X/Y to min endstops
G28 Z0 ;move Z to min endstops
G1 Z15.0 F100 ;move the platform down 15mm
G92 E0 ;zero the extruded length
G1 F200 E3 ;extrude 3mm of feed stock
G92 E0 ;zero the extruded length again
G1 F100
G0 Y20 F100
M117 Printing...
G5
G92 E0
G92 E0
G1 F2400 E-6
;LAYER_COUNT:974
;LAYER:0
M107
M204 S3000
M205 X10 Y10
G1 F600 Z0.275
G0 F3000 X85.542 Y86.302 Z0.275
G1 F600 Z0.2
G0 F3000 X83.602 Y91.451
M204 S1800
M205 X8 Y8
;TYPE:SKIRT
G1 F2400 E0
G1 X83.612 Y90.787 E0.03092
G1 X83.662 Y90.073 E0.06425
G1 X83.792 Y89.37 E0.09754
G1 X84 Y88.685 E0.13087
G1 X84.283 Y88.028 E0.16418
G1 X84.637 Y87.407 E0.19747
G1 X85.059 Y86.829 E0.23079
G1 X85.542 Y86.302 E0.26408
G1 X86.081 Y85.832 E0.29738
G1 X86.669 Y85.425 E0.33068
G1 X87.299 Y85.086 E0.36399
G1 X87.963 Y84.82 E0.3973
G1 X88.652 Y84.629 E0.43059
G1 X89.497 Y84.494 E0.47044
G1 X90.338 Y84.473 E0.50961
G1 X119.293 Y84.473 E1.85788
G1 X120.083 Y84.484 E1.89467
G1 X120.796 Y84.534 E1.92795
G1 X121.5 Y84.663 E1.96127
G1 X122.184 Y84.871 E1.99456
G1 X122.841 Y85.153 E2.02786
G1 X123.463 Y85.507 E2.06118
G1 X124.041 Y85.928 E2.09448
G1 X124.569 Y86.411 E2.1278
G1 X125.039 Y86.949 E2.16106
G1 X125.447 Y87.537 E2.19439
G1 X125.786 Y88.167 E2.2277
G1 X126.053 Y88.83 E2.26098
G1 X126.244 Y89.52 E2.29432
G1 X126.357 Y90.226 E2.32761
G1 X126.4 Y91.196 E2.37282
G1 X126.4 Y105.216 E3.02565
G1 X126.391 Y105.943 E3.05951
G1 X126.342 Y106.657 E3.09283
G1 X126.214 Y107.361 E3.12615
G1 X126.008 Y108.046 E3.15946
G1 X125.727 Y108.703 E3.19273
G1 X125.374 Y109.326 E3.22608
G1 X124.954 Y109.905 E3.25938
G1 X124.472 Y110.433 E3.29267
G1 X123.935 Y110.905 E3.32596
G1 X123.347 Y111.313 E3.35929
G1 X122.718 Y111.654 E3.39261
G1 X122.055 Y111.922 E3.4259
G1 X121.366 Y112.114 E3.45921
G1 X120.514 Y112.253 E3.49941
G1 X119.67 Y112.273 E3.53872
G1 X90.624 Y112.272 E4.89122
G1 X89.926 Y112.263 E4.92373
G1 X89.213 Y112.214 E4.957
G1 X88.509 Y112.086 E4.99032
G1 X87.824 Y111.88 E5.02363
G1 X87.167 Y111.598 E5.05692
G1 X86.545 Y111.245 E5.09022
G1 X85.966 Y110.825 E5.12353
G1 X85.437 Y110.343 E5.15686
G1 X84.966 Y109.805 E5.19015
G1 X84.558 Y109.218 E5.22344
G1 X84.218 Y108.588 E5.25677
G1 X83.95 Y107.925 E5.29007
G1 X83.758 Y107.236 E5.32338
G1 X83.644 Y106.53 E5.35668
G1 X83.611 Y106.025 E5.38024
G1 X83.6 Y105.507 E5.40437
G1 X83.602 Y91.451 E6.05887
M204 S3000
M205 X10 Y10
G0 F3000 X84.162 Y91.459
M204 S1800
M205 X8 Y8
G1 F2400 X84.172 Y90.795 E6.0898
G1 X84.222 Y90.114 E6.12159
G1 X84.351 Y89.443 E6.15341
G1 X84.558 Y88.792 E6.18522
G1 X84.84 Y88.169 E6.21706
G1 X85.192 Y87.584 E6.24885
G1 X85.61 Y87.044 E6.28065
G1 X86.089 Y86.556 E6.31249
G1 X86.621 Y86.127 E6.34431
G1 X87.2 Y85.764 E6.37613
G1 X87.817 Y85.471 E6.40794
G1 X88.464 Y85.252 E6.43974
G1 X89.132 Y85.109 E6.47155
G1 X89.832 Y85.046 E6.50428
G1 X90.338 Y85.033 E6.52785
G1 X119.293 Y85.033 E7.87612
G1 X120.075 Y85.044 E7.91253
G1 X120.756 Y85.093 E7.94433
G1 X121.427 Y85.222 E7.97614
G1 X122.078 Y85.429 E8.00795
G1 X122.701 Y85.71 E8.03977
G1 X123.287 Y86.062 E8.07161
G1 X123.827 Y86.48 E8.1034
G1 X124.315 Y86.958 E8.13521
G1 X124.744 Y87.49 E8.16703
G1 X125.108 Y88.068 E8.19884
G1 X125.402 Y88.685 E8.23067
G1 X125.621 Y89.332 E8.26247
G1 X125.764 Y90 E8.29428
G1 X125.84 Y90.836 E8.33337
G1 X125.84 Y105.209 E9.00264
G1 X125.831 Y105.936 E9.03649
G1 X125.782 Y106.618 E9.06833
G1 X125.654 Y107.289 E9.10014
G1 X125.449 Y107.941 E9.13196
G1 X125.169 Y108.564 E9.16377
G1 X124.819 Y109.15 E9.19555
G1 X124.402 Y109.692 E9.22739
G1 X123.925 Y110.181 E9.2592
G1 X123.394 Y110.61 E9.29099
G1 X122.816 Y110.975 E9.32282
G1 X122.2 Y111.27 E9.35462
G1 X121.553 Y111.491 E9.38646
G1 X120.885 Y111.635 E9.41828
G1 X120.035 Y111.713 E9.45803
G1 X90.632 Y111.713 E10.82715
G1 X89.934 Y111.704 E10.85966
G1 X89.252 Y111.655 E10.8915
G1 X88.581 Y111.527 E10.9233
G1 X87.93 Y111.321 E10.9551
G1 X87.306 Y111.041 E10.98695
G1 X86.72 Y110.69 E11.01875
G1 X86.179 Y110.273 E11.05056
G1 X85.69 Y109.795 E11.0824
G1 X85.261 Y109.264 E11.11419
G1 X84.896 Y108.686 E11.14602
G1 X84.602 Y108.07 E11.1778
G1 X84.381 Y107.423 E11.20964
G1 X84.237 Y106.755 E11.24146
G1 X84.171 Y106.011 E11.27624
G1 X84.16 Y105.507 E11.29971
G1 X84.162 Y91.459 E11.95384
M204 S3000
M205 X10 Y10
G0 F3000 X84.722 Y91.467
M204 S1800
M205 X8 Y8
G1 F2400 X84.732 Y90.803 E11.98477
G1 X84.781 Y90.156 E12.01498
G1 X84.91 Y89.519 E12.04524
G1 X85.116 Y88.903 E12.07549
G1 X85.396 Y88.317 E12.10573
G1 X85.747 Y87.77 E12.13599
G1 X86.161 Y87.27 E12.16622
G1 X86.634 Y86.824 E12.19649
G1 X87.158 Y86.44 E12.22674
G1 X87.725 Y86.123 E12.25699
G1 X88.327 Y85.879 E12.28724
G1 X88.954 Y85.71 E12.31747
G1 X89.952 Y85.593 E12.36426
G1 X119.293 Y85.593 E13.7305
G1 X120.067 Y85.604 E13.76655
G1 X120.714 Y85.653 E13.79676
G1 X121.351 Y85.781 E13.82702
G1 X121.967 Y85.987 E13.85726
G1 X122.554 Y86.267 E13.88754
G1 X123.101 Y86.616 E13.91776
G1 X123.602 Y87.03 E13.94802
G1 X124.047 Y87.503 E13.97826
G1 X124.432 Y88.027 E14.00854
G1 X124.749 Y88.594 E14.03879
G1 X124.994 Y89.195 E14.06901
G1 X125.163 Y89.822 E14.09924
G1 X125.28 Y90.825 E14.14626
G1 X125.28 Y105.202 E14.81572
G1 X125.271 Y105.929 E14.84957
G1 X125.223 Y106.577 E14.87983
G1 X125.095 Y107.214 E14.91008
G1 X124.891 Y107.831 E14.94034
G1 X124.612 Y108.418 E14.97061
G1 X124.264 Y108.966 E15.00083
G1 X123.851 Y109.467 E15.03107
G1 X123.379 Y109.914 E15.06134
G1 X122.856 Y110.299 E15.09158
G1 X122.29 Y110.617 E15.12181
G1 X121.688 Y110.864 E15.15211
G1 X121.062 Y111.034 E15.18231
G1 X120.045 Y111.153 E15.22999
G1 X90.639 Y111.153 E16.59926
G1 X89.941 Y111.144 E16.63176
G1 X89.293 Y111.095 E16.66202
G1 X88.656 Y110.968 E16.69227
G1 X88.04 Y110.763 E16.7225
G1 X87.453 Y110.484 E16.75276
G1 X86.905 Y110.135 E16.78301
G1 X86.404 Y109.722 E16.81325
G1 X85.957 Y109.25 E16.84352
G1 X85.572 Y108.727 E16.87376
G1 X85.254 Y108.16 E16.90403
G1 X85.008 Y107.559 E16.93427
G1 X84.838 Y106.932 E16.96452
G1 X84.72 Y105.9 E17.01288
G1 X84.722 Y91.467 E17.68494
M204 S3000
M205 X10 Y10
G1 F2400 E11.68494
;MESH:dog1 body1.stl
G0 F3000 X89.335 Y91.469
G0 X90.42 Y91.469
G0 X91.401 Y92.273
M204 S1800
M205 X8 Y8
;TYPE:WALL-INNER
G1 F2400 E17.68494
G1 F1500 X91.401 Y104.473 E18.25303
G1 X118.6 Y104.473 E19.51953
G1 X118.6 Y98.373 E19.80357
G1 X118.6 Y92.273 E20.08761
G1 X91.401 Y92.273 E21.35411
M204 S3000
M205 X10 Y10
G0 F3000 X90.841 Y91.713
M204 S1800
M205 X8 Y8
G1 F1500 X90.841 Y105.033 E21.97434
G1 X119.16 Y105.033 E23.293
G1 X119.16 Y98.373 E23.60311
G1 X119.16 Y91.713 E23.91323
G1 X90.841 Y91.713 E25.23188
M204 S3000
M205 X10 Y10
G0 F3000 X90.281 Y91.153
M204 S1800
M205 X8 Y8
;TYPE:WALL-OUTER
G1 F1500 X90.281 Y105.593 E25.90427
G1 X119.72 Y105.593 E27.27507
G1 X119.72 Y98.373 E27.61127
G1 X119.72 Y91.153 E27.94746
G1 X90.281 Y91.153 E29.31826
M204 S3000
M205 X10 Y10
G0 F3000 X90.281 Y91.353
G0 X90.871 Y91.743
G0 X91.941 Y92.813
M204 S1800
M205 X8 Y8
;TYPE:SKIN
G1 F1500 X91.941 Y103.933 E29.83606
G1 X118.06 Y103.933 E31.05227
G1 X118.06 Y98.373 E31.31116
G1 X118.06 Y92.813 E31.57006
G1 X91.941 Y92.813 E32.78627
M204 S3000
M205 X10 Y10
G0 F3000 X92.564 Y103.651
M204 S1800
M205 X8 Y8
G1 F1500 X92.22 Y103.308 E32.80889
M204 S3000
M205 X10 Y10
G0 F3000 X92.22 Y102.516
M204 S1800
M205 X8 Y8
G1 F1500 X93.356 Y103.651 E32.88366
M204 S3000
M205 X10 Y10
G0 F3000 X94.148 Y103.651
M204 S1800
M205 X8 Y8
G1 F1500 X92.22 Y101.724 E33.01059
M204 S3000
M205 X10 Y10
G0 F3000 X92.22 Y100.932
M204 S1800
M205 X8 Y8
G1 F1500 X94.94 Y103.651 E33.18968
M204 S3000
M205 X10 Y10
G0 F3000 X95.732 Y103.651
M204 S1800
M205 X8 Y8
G1 F1500 X92.22 Y100.14 E33.42092
M204 S3000
M205 X10 Y10
G0 F3000 X92.22 Y99.348
M204 S1800
M205 X8 Y8
G1 F1500 X96.524 Y103.651 E33.70431
M204 S3000
M205 X10 Y10
G0 F3000 X97.316 Y103.651
M204 S1800
M205 X8 Y8
G1 F1500 X92.22 Y98.556 E34.03986
M204 S3000
M205 X10 Y10
G0 F3000 X92.22 Y97.764
M204 S1800
M205 X8 Y8
G1 F1500 X98.108 Y103.651 E34.42756
M204 S3000
M205 X10 Y10
G0 F3000 X98.9 Y103.651
M204 S1800
M205 X8 Y8
G1 F1500 X92.22 Y96.972 E34.86741
M204 S3000
M205 X10 Y10
G0 F3000 X92.22 Y96.18
M204 S1800
M205 X8 Y8
G1 F1500 X99.692 Y103.651 E35.35943
M204 S3000
M205 X10 Y10
G0 F3000 X100.484 Y103.651
M204 S1800
M205 X8 Y8
G1 F1500 X92.22 Y95.388 E35.90359
M204 S3000
M205 X10 Y10
G0 F3000 X92.22 Y94.596
M204 S1800
M205 X8 Y8
G1 F1500 X101.276 Y103.651 E36.49991
M204 S3000
M205 X10 Y10
G0 F3000 X102.068 Y103.651
M204 S1800
M205 X8 Y8
G1 F1500 X92.22 Y93.804 E37.14839
M204 S3000
M205 X10 Y10
G0 F3000 X92.3 Y93.092
M204 S1800
M205 X8 Y8
G1 F1500 X102.859 Y103.651 E37.84371
M204 S3000
M205 X10 Y10
G0 F3000 X103.651 Y103.651
M204 S1800
M205 X8 Y8
G1 F1500 X93.092 Y93.092 E38.53904
M204 S3000
M205 X10 Y10
G0 F3000 X93.884 Y93.092
M204 S1800
M205 X8 Y8
G1 F1500 X104.443 Y103.651 E39.23437
M204 S3000
M205 X10 Y10
G0 F3000 X105.235 Y103.651
M204 S1800
M205 X8 Y8
G1 F1500 X94.676 Y93.092 E39.9297
M204 S3000
M205 X10 Y10
G0 F3000 X95.468 Y93.092
M204 S1800
M205 X8 Y8
G1 F1500 X106.027 Y103.651 E40.62503
M204 S3000
M205 X10 Y10
G0 F3000 X106.819 Y103.651
M204 S1800
M205 X8 Y8
G1 F1500 X96.26 Y93.092 E41.32035
M204 S3000
M205 X10 Y10
G0 F3000 X97.052 Y93.092
M204 S1800
M205 X8 Y8
G1 F1500 X107.611 Y103.651 E42.01568
M204 S3000
M205 X10 Y10
G0 F3000 X108.403 Y103.651
M204 S1800
M205 X8 Y8
G1 F1500 X97.844 Y93.092 E42.71101
M204 S3000
M205 X10 Y10
G0 F3000 X98.636 Y93.092
M204 S1800
M205 X8 Y8
G1 F1500 X109.195 Y103.651 E43.40634
M204 S3000
M205 X10 Y10
G0 F3000 X109.987 Y103.651
M204 S1800
M205 X8 Y8
G1 F1500 X99.428 Y93.092 E44.10167
M204 S3000
M205 X10 Y10
G0 F3000 X100.22 Y93.092
M204 S1800
M205 X8 Y8
G1 F1500 X110.779 Y103.651 E44.797
M204 S3000
M205 X10 Y10
G0 F3000 X111.571 Y103.651
M204 S1800
M205 X8 Y8
G1 F1500 X101.012 Y93.092 E45.49232
M204 S3000
M205 X10 Y10
G0 F3000 X101.804 Y93.092
M204 S1800
M205 X8 Y8
G1 F1500 X112.363 Y103.651 E46.18765
M204 S3000
M205 X10 Y10
G0 F3000 X113.155 Y103.651
M204 S1800
M205 X8 Y8
G1 F1500 X102.596 Y93.092 E46.88298
M204 S3000
M205 X10 Y10
G0 F3000 X103.388 Y93.092
M204 S1800
M205 X8 Y8
G1 F1500 X113.947 Y103.651 E47.57831
M204 S3000
M205 X10 Y10
G0 F3000 X114.739 Y103.651
M204 S1800
M205 X8 Y8
G1 F1500 X104.18 Y93.092 E48.27364
M204 S3000
M205 X10 Y10
G0 F3000 X104.972 Y93.092
M204 S1800
M205 X8 Y8
G1 F1500 X115.531 Y103.651 E48.96896
M204 S3000
M205 X10 Y10
G0 F3000 X116.323 Y103.651
M204 S1800
M205 X8 Y8
G1 F1500 X105.764 Y93.092 E49.66429
M204 S3000
M205 X10 Y10
G0 F3000 X106.556 Y93.092
M204 S1800
M205 X8 Y8
G1 F1500 X117.115 Y103.651 E50.35962
M204 S3000
M205 X10 Y10
G0 F3000 X117.779 Y103.523
M204 S1800
M205 X8 Y8
G1 F1500 X107.348 Y93.092 E51.04652
M204 S3000
M205 X10 Y10
G0 F3000 X108.139 Y93.092
M204 S1800
M205 X8 Y8
G1 F1500 X117.779 Y102.732 E51.68133
M204 S3000
M205 X10 Y10
G0 F3000 X117.779 Y101.94
M204 S1800
M205 X8 Y8
G1 F1500 X108.931 Y93.092 E52.26399
M204 S3000
M205 X10 Y10
G0 F3000 X109.723 Y93.092
M204 S1800
M205 X8 Y8
G1 F1500 X117.779 Y101.148 E52.79449
M204 S3000
M205 X10 Y10
G0 F3000 X117.779 Y100.356
M204 S1800
M205 X8 Y8
G1 F1500 X110.515 Y93.092 E53.27283
M204 S3000
M205 X10 Y10
G0 F3000 X111.307 Y93.092
M204 S1800
M205 X8 Y8
G1 F1500 X117.779 Y99.564 E53.69903
M204 S3000
M205 X10 Y10
G0 F3000 X117.779 Y98.772
M204 S1800
M205 X8 Y8
G1 F1500 X112.099 Y93.092 E54.07306
M204 S3000
M205 X10 Y10
G0 F3000 X112.891 Y93.092
M204 S1800
M205 X8 Y8
G1 F1500 X117.779 Y97.98 E54.39495
M204 S3000
M205 X10 Y10
G0 F3000 X117.779 Y97.188
M204 S1800
M205 X8 Y8
G1 F1500 X113.683 Y93.092 E54.66468
M204 S3000
M205 X10 Y10
G0 F3000 X114.475 Y93.092
M204 S1800
M205 X8 Y8
G1 F1500 X117.779 Y96.396 E54.88225
M204 S3000
M205 X10 Y10
G0 F3000 X117.779 Y95.604
M204 S1800
M205 X8 Y8
G1 F1500 X115.267 Y93.092 E55.04767
M204 S3000
M205 X10 Y10
G0 F3000 X116.059 Y93.092
M204 S1800
M205 X8 Y8
G1 F1500 X117.779 Y94.812 E55.16094
M204 S3000
M205 X10 Y10
G0 F3000 X117.779 Y94.02
M204 S1800
M205 X8 Y8
G1 F1500 X116.851 Y93.092 E55.22205
M204 S3000
M205 X10 Y10
G0 F3000 X117.643 Y93.092
M204 S1800
M205 X8 Y8
G1 F1500 X117.779 Y93.228 E55.231
M204 S3000
M205 X10 Y10
;MESH:NONMESH
G0 F600 X117.779 Y93.228 Z0.4
G0 F3000 X91.001 Y91.873
;TIME_ELAPSED:49.156121
;LAYER:1
M106 S127.5
M204 S1800
M205 X8 Y8
;TYPE:WALL-INNER
;MESH:dog1 body1.stl
G1 F2250 X91.001 Y104.873 E55.66338
G1 X119 Y104.873 E56.59463
G1 X119 Y98.373 E56.81082
G1 X119 Y91.873 E57.02702
G1 X91.001 Y91.873 E57.95827
M204 S3000
M205 X10 Y10
G0 F4500 X90.601 Y91.473
M204 S1800
M205 X8 Y8
G1 F2250 X90.601 Y105.273 E58.41726
G1 X119.4 Y105.273 E59.37511
G1 X119.4 Y98.373 E59.60461
G1 X119.4 Y91.473 E59.8341
G1 X90.601 Y91.473 E60.79196
M204 S3000
M205 X10 Y10
G0 F4500 X90.201 Y91.073
M204 S1800
M205 X8 Y8
;TYPE:WALL-OUTER
G1 F2250 X90.201 Y105.673 E61.27756
G1 X119.8 Y105.673 E62.26203
G1 X119.8 Y98.373 E62.50483
G1 X119.8 Y91.073 E62.74763
G1 X90.201 Y91.073 E63.73209
M204 S3000
M205 X10 Y10
G0 F4500 X90.201 Y91.273
G0 X90.871 Y91.743
G0 X91.381 Y92.253
M204 S1800
M205 X8 Y8
;TYPE:SKIN
G1 F1350 X91.381 Y104.493 E64.1392
G1 X118.62 Y104.493 E65.04517
G1 X118.62 Y98.373 E65.24872
G1 X118.62 Y92.253 E65.45227
G1 X91.381 Y92.253 E66.35825
M204 S3000
M205 X10 Y10
G0 F4500 X91.58 Y92.832
M204 S1800
M205 X8 Y8
G1 F1350 X91.961 Y92.452 E66.37614
M204 S3000
M205 X10 Y10
G0 F4500 X92.527 Y92.452
M204 S1800
M205 X8 Y8
G1 F1350 X91.58 Y93.398 E66.42066
M204 S3000
M205 X10 Y10
G0 F4500 X91.58 Y93.963
M204 S1800
M205 X8 Y8
G1 F1350 X93.092 Y92.452 E66.49176
M204 S3000
M205 X10 Y10
G0 F4500 X93.658 Y92.452
M204 S1800
M205 X8 Y8
G1 F1350 X91.58 Y94.529 E66.58948
M204 S3000
M205 X10 Y10
G0 F4500 X91.58 Y95.095
M204 S1800
M205 X8 Y8
G1 F1350 X94.224 Y92.452 E66.71382
M204 S3000
M205 X10 Y10
G0 F4500 X94.789 Y92.452
M204 S1800
M205 X8 Y8
G1 F1350 X91.58 Y95.66 E66.86474
M204 S3000
M205 X10 Y10
G0 F4500 X91.58 Y96.226
M204 S1800
M205 X8 Y8
G1 F1350 X95.355 Y92.452 E67.04228
M204 S3000
M205 X10 Y10
G0 F4500 X95.921 Y92.452
M204 S1800
M205 X8 Y8
G1 F1350 X91.58 Y96.792 E67.24644
M204 S3000
M205 X10 Y10
G0 F4500 X91.58 Y97.357
M204 S1800
M205 X8 Y8
G1 F1350 X96.486 Y92.452 E67.47718
M204 S3000
M205 X10 Y10
G0 F4500 X97.052 Y92.452
M204 S1800
M205 X8 Y8
G1 F1350 X91.58 Y97.923 E67.73455
M204 S3000
M205 X10 Y10
G0 F4500 X91.58 Y98.489
M204 S1800
M205 X8 Y8
G1 F1350 X97.618 Y92.452 E68.01853
M204 S3000
M205 X10 Y10
G0 F4500 X98.183 Y92.452
M204 S1800
M205 X8 Y8
G1 F1350 X91.58 Y99.055 E68.32912
M204 S3000
M205 X10 Y10
G0 F4500 X91.58 Y99.62
M204 S1800
M205 X8 Y8
G1 F1350 X98.749 Y92.452 E68.6663
M204 S3000
M205 X10 Y10
G0 F4500 X99.315 Y92.452
M204 S1800
M205 X8 Y8
G1 F1350 X91.58 Y100.186 E69.03011
M204 S3000
M205 X10 Y10
G0 F4500 X91.58 Y100.752
M204 S1800
M205 X8 Y8
G1 F1350 X99.88 Y92.452 E69.42052
M204 S3000
M205 X10 Y10
G0 F4500 X100.446 Y92.452
M204 S1800
M205 X8 Y8
G1 F1350 X91.58 Y101.317 E69.83752
M204 S3000
M205 X10 Y10
G0 F4500 X91.58 Y101.883
M204 S1800
M205 X8 Y8
G1 F1350 X101.012 Y92.452 E70.28115
M204 S3000
M205 X10 Y10
G0 F4500 X101.578 Y92.452
M204 S1800
M205 X8 Y8
G1 F1350 X91.58 Y102.449 E70.7514
M204 S3000
M205 X10 Y10
G0 F4500 X91.58 Y103.014
M204 S1800
M205 X8 Y8
G1 F1350 X102.143 Y92.452 E71.24823
M204 S3000
M205 X10 Y10
G0 F4500 X102.709 Y92.452
M204 S1800
M205 X8 Y8
G1 F1350 X91.58 Y103.58 E71.77168
M204 S3000
M205 X10 Y10
G0 F4500 X91.58 Y104.146
M204 S1800
M205 X8 Y8
G1 F1350 X103.275 Y92.452 E72.32175
M204 S3000
M205 X10 Y10
G0 F4500 X103.84 Y92.452
M204 S1800
M205 X8 Y8
G1 F1350 X92 Y104.292 E72.87867
M204 S3000
M205 X10 Y10
G0 F4500 X92.565 Y104.292
M204 S1800
M205 X8 Y8
G1 F1350 X104.406 Y92.452 E73.43561
M204 S3000
M205 X10 Y10
G0 F4500 X104.972 Y92.452
M204 S1800
M205 X8 Y8
G1 F1350 X93.131 Y104.292 E73.99255
M204 S3000
M205 X10 Y10
G0 F4500 X93.697 Y104.292
M204 S1800
M205 X8 Y8
