;FLAVOR:Marlin
;TIME:6369
;Filament used: 5.18792m
;Layer height: 0.2
;MINX:66.615
;MINY:22.708
;MINZ:0.2
;MAXX:144.82
;MAXY:168.709
;MAXZ:9.4
;Generated with Cura_SteamEngine main
M140 S60
M105
M190 S60
M104 S200
M105
M109 S200
M82 ;absolute extrusion mode
G21 ;metric values
G90 ;absolute positioning
M82 ;set extruder to absolute mode
M107 ;start with the fan off
G28 X0 Y0 ;move X/Y to min endstops
G28 Z0 ;move Z to min endstops
G1 Z15.0 F100 ;move the platform down 15mm
G92 E0 ;zero the extruded length
G1 F200 E3 ;extrude 3mm of feed stock
G92 E0 ;zero the extruded length again
G1 F100
G0 Y20 F100
M117 Printing...
G5
G92 E0
G92 E0
G1 F2400 E-6
;LAYER_COUNT:47
;LAYER:0
M107
M204 S3000
M205 X10 Y10
G1 F600 Z0.275
G0 F3000 X68.342 Y32.319 Z0.275
G1 F600 Z0.2
G0 F3000 X66.617 Y40.351
M204 S1800
M205 X8 Y8
;TYPE:SKIRT
G1 F2400 E0
G1 X66.627 Y39.645 E0.03288
G1 X66.656 Y39.121 E0.05731
G1 X66.731 Y38.353 E0.09325
G1 X66.852 Y37.315 E0.14191
G1 X66.957 Y36.555 E0.17763
G1 X67.117 Y35.74 E0.21631
G1 X67.627 Y34.192 E0.2922
G1 X68.063 Y32.977 E0.35231
G1 X68.342 Y32.319 E0.38559
G1 X68.613 Y31.824 E0.41186
G1 X69.012 Y31.166 E0.4477
G1 X69.587 Y30.251 E0.49802
G1 X69.982 Y29.642 E0.53182
G1 X70.404 Y29.064 E0.56514
G1 X70.752 Y28.674 E0.58948
G1 X71.308 Y28.102 E0.62662
G1 X72.526 Y26.897 E0.7064
G1 X73.062 Y26.423 E0.73972
G1 X73.533 Y26.085 E0.76672
G1 X74.174 Y25.668 E0.80232
G1 X75.17 Y25.043 E0.85708
G1 X75.748 Y24.694 E0.88852
G1 X76.38 Y24.359 E0.92182
G1 X76.863 Y24.161 E0.94613
G1 X77.565 Y23.905 E0.98092
G1 X78.55 Y23.56 E1.02952
G1 X79.193 Y23.345 E1.06109
G1 X79.998 Y23.126 E1.09994
G1 X81.35 Y22.928 E1.16357
G1 X82.923 Y22.755 E1.23725
G1 X83.531 Y22.718 E1.26562
G1 X84.378 Y22.708 E1.30506
G1 X94.703 Y22.761 E1.78584
G1 X127.227 Y22.764 E3.30029
G1 X127.894 Y22.776 E3.33136
G1 X129 Y22.829 E3.38292
G1 X129.767 Y22.888 E3.41874
G1 X130.446 Y22.979 E3.45064
G1 X131.306 Y23.144 E3.49141
G1 X131.917 Y23.277 E3.52053
G1 X132.65 Y23.483 E3.55598
G1 X133.658 Y23.832 E3.60565
G1 X134.613 Y24.194 E3.65321
G1 X135.454 Y24.587 E3.69643
G1 X136.165 Y24.985 E3.73438
G1 X137.176 Y25.584 E3.78909
G1 X137.945 Y26.121 E3.83277
G1 X138.579 Y26.637 E3.87083
G1 X139.473 Y27.402 E3.92562
G1 X140.136 Y28.06 E3.96912
G1 X140.754 Y28.774 E4.01309
G1 X141.416 Y29.576 E4.06151
G1 X141.967 Y30.355 E4.10594
G1 X142.37 Y31.026 E4.14239
G1 X142.955 Y32.051 E4.19734
G1 X143.361 Y32.905 E4.24137
G1 X143.711 Y33.814 E4.28673
G1 X144.03 Y34.703 E4.33071
G1 X144.25 Y35.459 E4.36737
G1 X144.465 Y36.414 E4.41295
G1 X144.606 Y37.14 E4.44739
G1 X144.697 Y37.821 E4.47938
G1 X144.754 Y38.538 E4.51288
G1 X144.796 Y39.366 E4.55148
G1 X144.819 Y40.551 E4.60667
G1 X144.82 Y151.149 E9.75657
G1 X144.801 Y152.179 E9.80454
G1 X144.728 Y153.158 E9.85026
G1 X144.651 Y153.987 E9.88902
G1 X144.549 Y154.676 E9.92146
G1 X144.425 Y155.251 E9.94885
G1 X144.103 Y156.546 E10.01098
G1 X143.877 Y157.269 E10.04626
G1 X143.697 Y157.737 E10.0696
G1 X143.415 Y158.418 E10.10393
G1 X143.135 Y159.068 E10.13688
G1 X142.805 Y159.727 E10.1712
G1 X142.533 Y160.191 E10.19624
G1 X141.832 Y161.317 E10.25801
G1 X141.317 Y162.046 E10.29957
G1 X140.565 Y162.928 E10.35354
G1 X140.107 Y163.447 E10.38577
G1 X139.531 Y164.032 E10.424
G1 X138.677 Y164.762 E10.47631
G1 X138.136 Y165.21 E10.50902
G1 X137.556 Y165.638 E10.54258
G1 X137.094 Y165.937 E10.56821
G1 X136.498 Y166.302 E10.60075
G1 X135.89 Y166.662 E10.63365
G1 X135.118 Y167.062 E10.67414
G1 X133.53 Y167.708 E10.75397
G1 X132.798 Y167.955 E10.78994
G1 X132.288 Y168.091 E10.81452
G1 X131.605 Y168.255 E10.84723
G1 X130.901 Y168.413 E10.88082
G1 X130.052 Y168.553 E10.92089
G1 X128.903 Y168.645 E10.97456
G1 X127.919 Y168.704 E11.02046
G1 X84.235 Y168.709 E13.05457
G1 X83.206 Y168.69 E13.1025
G1 X82.22 Y168.616 E13.14854
G1 X81.406 Y168.541 E13.1866
G1 X80.69 Y168.434 E13.22031
G1 X80.122 Y168.31 E13.24738
G1 X78.841 Y167.992 E13.30884
G1 X78.125 Y167.769 E13.34376
G1 X77.645 Y167.585 E13.3677
G1 X76.965 Y167.304 E13.40196
G1 X76.315 Y167.024 E13.43492
G1 X75.676 Y166.705 E13.46817
G1 X75.207 Y166.432 E13.49344
G1 X74.064 Y165.72 E13.55614
G1 X73.45 Y165.286 E13.59116
G1 X73.053 Y164.964 E13.61496
G1 X72.456 Y164.454 E13.65152
G1 X71.93 Y163.99 E13.68418
G1 X71.401 Y163.466 E13.71885
G1 X71.042 Y163.061 E13.74405
G1 X70.212 Y162.076 E13.80403
G1 X69.763 Y161.476 E13.83893
G1 X69.434 Y160.966 E13.86719
G1 X68.742 Y159.814 E13.92976
G1 X68.335 Y159.016 E13.97147
G1 X67.962 Y158.136 E14.01598
G1 X67.657 Y157.372 E14.05428
G1 X67.426 Y156.681 E14.08821
G1 X67.292 Y156.177 E14.11249
G1 X67.128 Y155.494 E14.1452
G1 X66.97 Y154.79 E14.1788
G1 X66.83 Y153.94 E14.21891
G1 X66.738 Y152.788 E14.27272
G1 X66.677 Y151.764 E14.32049
G1 X66.615 Y86.082 E17.37892
G1 X66.617 Y40.351 E19.50835
M204 S3000
M205 X10 Y10
G0 F3000 X67.177 Y40.359
M204 S1800
M205 X8 Y8
G1 F2400 X67.191 Y39.405 E19.55277
G1 X67.287 Y38.418 E19.59895
G1 X67.425 Y37.247 E19.65385
G1 X67.511 Y36.632 E19.68277
G1 X67.663 Y35.872 E19.71886
G1 X68.154 Y34.381 E19.79195
G1 X68.59 Y33.166 E19.85206
G1 X68.913 Y32.41 E19.89034
G1 X69.486 Y31.464 E19.94184
G1 X70.107 Y30.477 E19.99614
G1 X70.451 Y29.947 E20.02556
G1 X70.932 Y29.292 E20.0634
G1 X71.702 Y28.5 E20.11484
G1 X72.92 Y27.295 E20.19462
G1 X73.546 Y26.745 E20.23342
G1 X74.472 Y26.142 E20.28488
G1 X75.369 Y25.578 E20.33421
G1 X76.037 Y25.174 E20.37057
G1 X76.75 Y24.798 E20.4081
G1 X77.75 Y24.434 E20.45765
G1 X78.728 Y24.091 E20.50591
G1 X79.371 Y23.876 E20.53748
G1 X80.129 Y23.672 E20.57403
G1 X81.652 Y23.454 E20.64567
G1 X82.983 Y23.311 E20.70801
G1 X83.538 Y23.278 E20.7339
G1 X84.385 Y23.268 E20.77334
G1 X94.7 Y23.321 E21.25365
G1 X127.219 Y23.324 E22.76787
G1 X127.868 Y23.336 E22.7981
G1 X128.974 Y23.389 E22.84966
G1 X129.722 Y23.446 E22.88459
G1 X130.342 Y23.529 E22.91372
G1 X131.033 Y23.66 E22.94647
G1 X131.798 Y23.825 E22.98291
G1 X132.467 Y24.012 E23.01525
G1 X133.475 Y24.361 E23.06492
G1 X134.413 Y24.717 E23.11164
G1 X135.181 Y25.076 E23.15112
G1 X135.892 Y25.474 E23.18906
G1 X136.89 Y26.066 E23.24309
G1 X137.591 Y26.556 E23.28291
G1 X138.342 Y27.169 E23.32805
G1 X139.109 Y27.827 E23.37511
G1 X139.714 Y28.428 E23.41482
G1 X140.322 Y29.13 E23.45806
G1 X140.984 Y29.932 E23.50649
G1 X141.486 Y30.643 E23.54701
G1 X141.958 Y31.432 E23.58983
G1 X142.468 Y32.328 E23.63783
G1 X142.839 Y33.108 E23.67805
G1 X143.184 Y34.004 E23.72276
G1 X143.503 Y34.893 E23.76674
G1 X143.703 Y35.582 E23.80015
G1 X143.918 Y36.537 E23.84573
G1 X144.055 Y37.244 E23.87926
G1 X144.139 Y37.865 E23.90844
G1 X144.196 Y38.582 E23.94193
G1 X144.236 Y39.377 E23.979
G1 X144.259 Y40.562 E24.03419
G1 X144.26 Y151.138 E29.18307
G1 X144.241 Y152.146 E29.23001
G1 X144.16 Y153.229 E29.28058
G1 X144.094 Y153.934 E29.31355
G1 X144 Y154.563 E29.34317
G1 X143.881 Y155.116 E29.36951
G1 X143.559 Y156.411 E29.43165
G1 X143.312 Y157.203 E29.47028
G1 X142.901 Y158.196 E29.52032
G1 X142.621 Y158.846 E29.55327
G1 X142.32 Y159.447 E29.58457
G1 X142.058 Y159.895 E29.60874
G1 X141.357 Y161.021 E29.6705
G1 X140.883 Y161.691 E29.70872
G1 X140.145 Y162.557 E29.7617
G1 X139.687 Y163.076 E29.79393
G1 X139.155 Y163.618 E29.82929
G1 X138.32 Y164.331 E29.88042
G1 X137.779 Y164.779 E29.91313
G1 X137.154 Y165.24 E29.94929
G1 X136.212 Y165.82 E30.0008
G1 X135.604 Y166.18 E30.0337
G1 X134.886 Y166.552 E30.07136
G1 X133.319 Y167.189 E30.15012
G1 X132.651 Y167.414 E30.18294
G1 X132.156 Y167.546 E30.2068
G1 X131.482 Y167.708 E30.23908
G1 X130.778 Y167.866 E30.27267
G1 X130.033 Y167.991 E30.30785
G1 X128.869 Y168.086 E30.36223
G1 X127.902 Y168.144 E30.40734
G1 X84.356 Y168.15 E32.43502
G1 X83.225 Y168.13 E32.48769
G1 X82.261 Y168.058 E32.53271
G1 X81.458 Y167.984 E32.57026
G1 X80.805 Y167.886 E32.601
G1 X80.257 Y167.767 E32.62711
G1 X78.976 Y167.449 E32.68857
G1 X78.179 Y167.2 E32.72745
G1 X77.187 Y166.79 E32.77744
G1 X76.537 Y166.51 E32.81039
G1 X75.954 Y166.219 E32.84073
G1 X75.503 Y165.957 E32.86502
G1 X74.36 Y165.245 E32.92772
G1 X73.676 Y164.76 E32.96677
G1 X72.827 Y164.035 E33.01875
G1 X72.301 Y163.571 E33.05141
G1 X71.818 Y163.092 E33.08309
G1 X71.47 Y162.7 E33.1075
G1 X70.64 Y161.715 E33.16748
G1 X70.231 Y161.167 E33.19932
G1 X69.914 Y160.677 E33.22649
G1 X69.222 Y159.525 E33.28907
G1 X68.851 Y158.797 E33.32711
G1 X68.429 Y157.798 E33.37761
G1 X68.177 Y157.165 E33.40934
G1 X67.967 Y156.534 E33.4403
G1 X67.837 Y156.045 E33.46386
G1 X67.675 Y155.371 E33.49614
G1 X67.517 Y154.667 E33.52974
G1 X67.387 Y153.892 E33.56633
G1 X67.297 Y152.755 E33.61944
G1 X67.237 Y151.747 E33.66646
G1 X67.175 Y86.082 E36.7241
G1 X67.177 Y40.359 E38.85315
M204 S3000
M205 X10 Y10
G0 F3000 X67.737 Y40.367
M204 S1800
M205 X8 Y8
G1 F2400 X67.75 Y39.433 E38.89665
G1 X67.832 Y38.586 E38.93627
G1 X67.98 Y37.325 E38.99539
G1 X68.066 Y36.71 E39.02431
G1 X68.277 Y35.798 E39.0679
G1 X68.681 Y34.571 E39.12805
G1 X69.117 Y33.356 E39.18815
G1 X69.418 Y32.656 E39.22364
G1 X69.96 Y31.762 E39.27232
G1 X70.577 Y30.781 E39.32628
G1 X70.921 Y30.251 E39.3557
G1 X71.369 Y29.646 E39.39076
G1 X72.096 Y28.898 E39.43933
G1 X73.314 Y27.693 E39.51911
G1 X73.897 Y27.184 E39.55514
G1 X74.698 Y26.662 E39.59966
G1 X75.749 Y26.002 E39.65745
G1 X76.327 Y25.653 E39.68889
G1 X76.992 Y25.306 E39.72382
G1 X77.935 Y24.962 E39.77056
G1 X78.834 Y24.647 E39.81492
G1 X79.549 Y24.408 E39.85002
G1 X80.459 Y24.191 E39.89358
G1 X81.712 Y24.011 E39.95253
G1 X83.043 Y23.868 E40.01486
G1 X83.545 Y23.838 E40.03828
G1 X84.481 Y23.828 E40.08186
G1 X94.697 Y23.881 E40.55757
G1 X127.528 Y23.883 E42.08632
G1 X128.947 Y23.948 E42.15246
G1 X129.677 Y24.004 E42.18655
G1 X130.237 Y24.079 E42.21286
G1 X130.928 Y24.21 E42.24561
G1 X131.679 Y24.372 E42.28138
G1 X132.283 Y24.542 E42.3106
G1 X133.449 Y24.948 E42.36809
G1 X134.213 Y25.24 E42.40618
G1 X134.907 Y25.565 E42.44186
G1 X135.738 Y26.032 E42.48625
G1 X136.604 Y26.547 E42.53316
G1 X137.238 Y26.99 E42.56918
G1 X137.872 Y27.506 E42.60724
G1 X138.744 Y28.252 E42.66068
G1 X139.291 Y28.795 E42.69657
G1 X139.803 Y29.384 E42.73291
G1 X140.552 Y30.289 E42.78761
G1 X141.006 Y30.931 E42.82422
G1 X141.472 Y31.709 E42.86645
G1 X141.982 Y32.605 E42.91446
G1 X142.317 Y33.31 E42.9508
G1 X142.611 Y34.069 E42.9887
G1 X142.976 Y35.082 E43.03884
G1 X143.157 Y35.705 E43.06905
G1 X143.372 Y36.66 E43.11463
G1 X143.505 Y37.348 E43.14726
G1 X143.58 Y37.91 E43.17366
G1 X143.647 Y38.772 E43.21392
G1 X143.676 Y39.388 E43.24264
G1 X143.7 Y40.675 E43.30258
G1 X143.7 Y151.128 E48.44573
G1 X143.681 Y152.129 E48.49235
G1 X143.611 Y153.075 E48.53652
G1 X143.536 Y153.882 E48.57426
G1 X143.451 Y154.451 E48.60105
G1 X143.338 Y154.981 E48.62628
G1 X143.016 Y156.276 E48.68842
G1 X142.8 Y156.969 E48.72222
G1 X142.386 Y157.975 E48.77287
G1 X142.106 Y158.625 E48.80583
G1 X141.834 Y159.168 E48.83411
G1 X141.582 Y159.6 E48.8574
G1 X140.881 Y160.726 E48.91916
G1 X140.447 Y161.34 E48.95417
G1 X139.725 Y162.187 E49.00599
G1 X139.267 Y162.706 E49.03823
G1 X138.812 Y163.169 E49.06845
G1 X137.963 Y163.9 E49.12062
G1 X137.422 Y164.348 E49.15333
G1 X136.943 Y164.7 E49.18101
G1 X136.508 Y164.982 E49.20515
G1 X135.927 Y165.338 E49.23687
G1 X135.319 Y165.698 E49.26978
G1 X134.663 Y166.038 E49.30418
G1 X133.108 Y166.67 E49.38234
G1 X132.371 Y166.919 E49.41856
G1 X131.359 Y167.162 E49.46703
G1 X130.655 Y167.32 E49.50062
G1 X129.938 Y167.439 E49.53447
G1 X128.836 Y167.527 E49.58594
G1 X127.885 Y167.584 E49.63031
G1 X84.356 Y167.59 E51.6572
G1 X83.256 Y167.57 E51.70843
G1 X82.207 Y167.491 E51.75741
G1 X81.509 Y167.426 E51.79005
G1 X80.919 Y167.337 E51.81784
G1 X80.392 Y167.223 E51.84294
G1 X79.111 Y166.905 E51.9044
G1 X78.379 Y166.677 E51.9401
G1 X77.408 Y166.275 E51.98904
G1 X76.758 Y165.995 E52.02199
G1 X76.087 Y165.661 E52.0569
G1 X74.656 Y164.77 E52.13539
G1 X74.037 Y164.331 E52.17073
G1 X73.197 Y163.615 E52.22212
G1 X72.671 Y163.151 E52.25478
G1 X72.235 Y162.718 E52.28339
G1 X71.898 Y162.339 E52.30701
G1 X71.068 Y161.354 E52.36699
G1 X70.698 Y160.859 E52.39576
G1 X70.394 Y160.389 E52.42183
G1 X69.702 Y159.237 E52.4844
G1 X69.367 Y158.579 E52.51879
G1 X68.949 Y157.591 E52.56874
G1 X68.697 Y156.958 E52.60046
G1 X68.472 Y156.284 E52.63355
G1 X68.221 Y155.248 E52.68319
G1 X68.063 Y154.544 E52.71678
G1 X67.944 Y153.826 E52.75067
G1 X67.856 Y152.722 E52.80224
G1 X67.797 Y151.731 E52.84847
G1 X67.735 Y86.082 E55.90536
G1 X67.737 Y40.367 E58.03405
M204 S3000
M205 X10 Y10
G1 F2400 E52.03405
;MESH:iphone_12_mini.STL
G0 F3000 X72.35 Y40.369
G0 X73.435 Y40.369
G0 X105.305 Y153.595
M204 S1800
M205 X8 Y8
;TYPE:WALL-INNER
G1 F2400 E58.03405
G1 F1500 X105.121 Y151.712 E58.12214
G1 X105.121 Y136.267 E58.84133
G1 X105.309 Y134.368 E58.93018
G1 X105.88 Y132.491 E59.02154
G1 X106.814 Y130.75 E59.11354
G1 X108.051 Y129.243 E59.20432
G1 X109.575 Y127.991 E59.29616
G1 X111.282 Y127.078 E59.3863
G1 X113.165 Y126.501 E59.47801
G1 X115.1 Y126.31 E59.56855
G1 X127.723 Y126.309 E60.15633
G1 X129.607 Y126.494 E60.24448
G1 X131.487 Y127.066 E60.33598
G1 X133.216 Y127.988 E60.42722
G1 X134.743 Y129.24 E60.51917
G1 X135.991 Y130.762 E60.61082
G1 X136.85 Y132.371 E60.69575
G1 X137.021 Y132.842 E60.71908
G1 X137.021 Y40.102 E65.03744
G1 X137.02 Y39.784 E65.05225
G1 X136.935 Y38.516 E65.11143
G1 X136.693 Y37.328 E65.16788
G1 X136.141 Y35.828 E65.24231
G1 X135.349 Y34.47 E65.31551
G1 X134.328 Y33.252 E65.38951
G1 X133.113 Y32.232 E65.46338
G1 X131.755 Y31.442 E65.53654
G1 X130.254 Y30.89 E65.61101
G1 X129.065 Y30.648 E65.66751
G1 X127.801 Y30.563 E65.7265
G1 X94.853 Y30.562 E67.2607
G1 X83.724 Y30.505 E67.77891
G1 X82.391 Y30.657 E67.84139
G1 X81.603 Y30.755 E67.87836
G1 X79.65 Y31.439 E67.97472
G1 X77.908 Y32.535 E68.07055
G1 X76.446 Y33.997 E68.16683
G1 X75.348 Y35.743 E68.26287
G1 X74.666 Y37.693 E68.35906
G1 X74.562 Y38.522 E68.39797
G1 X74.417 Y39.815 E68.45855
G1 X74.474 Y151.679 E73.66741
G1 X74.592 Y153.166 E73.73687
G1 X74.927 Y154.557 E73.80349
G1 X75.477 Y155.898 E73.87098
G1 X76.228 Y157.123 E73.93789
G1 X77.162 Y158.218 E74.0049
G1 X78.258 Y159.153 E74.07199
G1 X79.482 Y159.904 E74.13885
G1 X80.826 Y160.456 E74.20651
G1 X82.217 Y160.791 E74.27313
G1 X83.704 Y160.91 E74.34259
G1 X111.309 Y160.908 E75.628
G1 X109.576 Y159.982 E75.71949
G1 X108.052 Y158.732 E75.81127
G1 X106.801 Y157.209 E75.90305
G1 X105.878 Y155.48 E75.99431
G1 X105.305 Y153.595 E76.08605
M204 S3000
M205 X10 Y10
G0 F3000 X107.272 Y156.898
G0 X108.451 Y158.333
G0 X109.741 Y159.392
G0 X113.135 Y161.409
G0 X113.134 Y161.471
M204 S1800
M205 X8 Y8
G1 F1558.4 X113.772 Y161.486 E76.11465
G1 F1650.3 X114.41 Y161.501 E76.14166
G1 F1753.7 X115.048 Y161.517 E76.16708
G1 F1806.5 X116.872 Y161.517 E76.2376
G1 X118.697 Y161.517 E76.30817
G1 F1802.6 X120.522 Y161.516 E76.37888
G1 F1798.7 X122.347 Y161.516 E76.44975
G1 X124.172 Y161.515 E76.52062
G1 F1794.9 X125.997 Y161.515 E76.59163
G1 X127.822 Y161.515 E76.66265
G1 F1775.9 X128.359 Y161.469 E76.68385
G1 F1746.4 X128.895 Y161.424 E76.70536
G1 F1717.8 X129.432 Y161.379 E76.72728
G1 F1690.1 X130.14 Y161.198 E76.75747
G1 F1670 X130.849 Y161.016 E76.78809
G1 F1707.3 X131.438 Y160.79 E76.8139
G1 F1676.6 X132.276 Y160.422 E76.85203
G1 F1653.5 X133.12 Y159.92 E76.89351
G1 F1650.3 X133.577 Y159.621 E76.91662
G1 F1609.2 X134.743 Y158.63 E76.98304
G1 X135.095 Y158.214 E77.00669
G1 F1590.9 X135.447 Y157.798 E77.03062
G1 F1573 X135.799 Y157.381 E77.05485
G1 F1561.3 X136.162 Y156.769 E77.08668
G1 F1552.7 X136.526 Y156.156 E77.11875
G1 F1603.1 X136.839 Y155.441 E77.15276
G1 F1609.2 X137.111 Y154.733 E77.18568
G1 F1564.2 X137.287 Y154.049 E77.21721
G1 F1576 X137.463 Y153.365 E77.24852
G1 F1587.9 X137.51 Y152.811 E77.27297
G1 F1606.1 X137.557 Y152.257 E77.29715
G1 F1624.8 X137.604 Y151.702 E77.32109
G1 F1634.2 X137.604 Y149.123 E77.43132
G1 X137.604 Y146.544 E77.54154
G1 F1631.1 X137.604 Y143.965 E77.65198
G1 X137.604 Y141.386 E77.76242
G1 F1627.9 X137.604 Y138.807 E77.87308
G1 X137.603 Y136.228 E77.98373
G1 F1584.9 X137.59 Y135.666 E78.0085
G1 F1505.4 X137.576 Y135.102 E78.03468
G1 F1435.9 X137.562 Y134.538 E78.06212
G1 F1431 X137.574 Y134.307 E78.07341
G1 F1466 X137.576 Y133.743 E78.10028
G1 F1478.9 X137.578 Y133.179 E78.12692
G1 F1494.7 X137.58 Y132.615 E78.15328
