;FLAVOR:Marlin
;TIME:15015
;Filament used: 5.14399m
;Layer height: 0.2
;MINX:31.972
;MINY:65.927
;MINZ:0.2
;MAXX:177.973
;MAXY:144.132
;MAXZ:9.4
;Generated with Cura_SteamEngine main
M104 S228
M105
M109 S228
M82 ;absolute extrusion mode
G21 ;metric values
G90 ;absolute positioning
M82 ;set extruder to absolute mode
M107 ;start with the fan off
G28 X0 Y0 ;move X/Y to min endstops
G28 Z0 ;move Z to min endstops
G1 Z15.0 F100 ;move the platform down 15mm
G92 E0 ;zero the extruded length
G1 F200 E3 ;extrude 3mm of feed stock
G92 E0 ;zero the extruded length again
G1 F100
G0 Y20 F100
M117 Printing...
G5
G92 E0
G92 E0
;LAYER_COUNT:47
;LAYER:0
M107
M204 S3000
M205 X10 Y10
G0 F3000 X40.424 Y68.298 Z0.2
G0 X33.166 Y76.897
M204 S1800
M205 X8 Y8
;TYPE:SKIRT
G1 F2400 X33.457 Y76.136 E0.03794
G1 X33.85 Y75.297 E0.08108
G1 X34.349 Y74.409 E0.12851
G1 X34.85 Y73.567 E0.17413
G1 X35.404 Y72.778 E0.21902
G1 X36.116 Y71.911 E0.27126
G1 X36.693 Y71.243 E0.31236
G1 X37.348 Y70.591 E0.3554
G1 X38.32 Y69.756 E0.41507
G1 X38.867 Y69.309 E0.44796
G1 X39.618 Y68.781 E0.49071
G1 X40.424 Y68.298 E0.53446
G1 X41.316 Y67.791 E0.58224
G1 X42.171 Y67.386 E0.62629
G1 X43.134 Y67.016 E0.67433
G1 X43.991 Y66.71 E0.7167
G1 X44.739 Y66.493 E0.75297
G1 X45.646 Y66.289 E0.79626
G1 X46.418 Y66.14 E0.83287
G1 X47.077 Y66.052 E0.86382
G1 X47.98 Y65.981 E0.906
G1 X48.632 Y65.951 E0.93639
G1 X49.815 Y65.928 E0.99149
G1 X160.413 Y65.927 E6.1414
G1 X161.441 Y65.946 E6.18927
G1 X162.422 Y66.019 E6.23508
G1 X163.241 Y66.095 E6.27338
G1 X163.957 Y66.202 E6.30709
G1 X164.523 Y66.325 E6.33406
G1 X165.806 Y66.643 E6.39561
G1 X166.665 Y66.912 E6.43752
G1 X167.682 Y67.332 E6.48876
G1 X168.332 Y67.612 E6.52171
G1 X169.11 Y68 E6.56219
G1 X170.085 Y68.6 E6.6155
G1 X170.665 Y68.97 E6.64754
G1 X171.255 Y69.395 E6.6814
G1 X171.648 Y69.717 E6.70505
G1 X172.19 Y70.181 E6.73828
G1 X172.715 Y70.644 E6.77087
G1 X173.253 Y71.179 E6.8062
G1 X173.618 Y71.591 E6.83183
G1 X174.444 Y72.574 E6.89162
G1 X174.905 Y73.196 E6.92767
G1 X175.203 Y73.657 E6.95323
G1 X175.566 Y74.249 E6.98556
G1 X175.926 Y74.857 E7.01847
G1 X176.263 Y75.509 E7.05264
G1 X176.475 Y75.992 E7.0772
G1 X176.974 Y77.222 E7.13901
G1 X177.219 Y77.949 E7.17473
G1 X177.366 Y78.509 E7.20169
G1 X177.665 Y79.794 E7.26313
G1 X177.816 Y80.682 E7.30507
G1 X177.907 Y81.816 E7.35804
G1 X177.96 Y82.634 E7.39621
G1 X177.973 Y83.474 E7.43533
G1 X177.973 Y126.512 E9.43936
G1 X177.954 Y127.545 E9.48747
G1 X177.87 Y128.647 E9.53893
G1 X177.804 Y129.351 E9.57186
G1 X177.698 Y130.055 E9.60501
G1 X177.579 Y130.607 E9.6313
G1 X177.257 Y131.906 E9.69362
G1 X177.03 Y132.633 E9.72908
G1 X176.85 Y133.101 E9.75243
G1 X176.568 Y133.782 E9.78675
G1 X176.288 Y134.432 E9.81971
G1 X175.97 Y135.07 E9.8529
G1 X175.706 Y135.523 E9.87732
G1 X174.986 Y136.68 E9.94077
G1 X174.47 Y137.411 E9.98243
G1 X173.718 Y138.292 E10.03637
G1 X173.26 Y138.811 E10.0686
G1 X172.687 Y139.394 E10.10666
G1 X171.826 Y140.13 E10.15941
G1 X171.287 Y140.576 E10.19198
G1 X170.604 Y141.078 E10.23145
G1 X169.651 Y141.666 E10.2836
G1 X169.043 Y142.026 E10.3165
G1 X168.271 Y142.426 E10.35698
G1 X166.683 Y143.072 E10.43681
G1 X165.951 Y143.319 E10.47279
G1 X165.441 Y143.455 E10.49736
G1 X164.758 Y143.619 E10.53007
G1 X164.054 Y143.777 E10.56367
G1 X163.204 Y143.917 E10.60378
G1 X162.052 Y144.009 E10.65759
G1 X161.028 Y144.07 E10.70536
G1 X95.346 Y144.132 E13.76379
G1 X49.614 Y144.13 E15.89326
G1 X48.915 Y144.12 E15.92581
G1 X48.399 Y144.092 E15.94988
G1 X47.616 Y144.016 E15.98651
G1 X46.578 Y143.895 E16.03517
G1 X45.817 Y143.79 E16.07094
G1 X44.998 Y143.628 E16.10982
G1 X43.48 Y143.128 E16.18424
G1 X42.238 Y142.683 E16.24567
G1 X41.579 Y142.404 E16.27899
G1 X41.066 Y142.123 E16.30623
G1 X40.433 Y141.736 E16.34077
G1 X39.473 Y141.133 E16.39356
G1 X38.911 Y140.769 E16.42474
G1 X38.333 Y140.347 E16.45807
G1 X37.943 Y139.999 E16.4824
G1 X37.386 Y139.46 E16.5185
G1 X36.591 Y138.663 E16.57091
G1 X36.123 Y138.182 E16.60216
G1 X35.654 Y137.642 E16.63547
G1 X35.347 Y137.211 E16.66011
G1 X34.913 Y136.544 E16.69716
G1 X34.366 Y135.673 E16.74505
G1 X33.961 Y135.004 E16.78147
G1 X33.625 Y134.373 E16.81476
G1 X33.424 Y133.884 E16.83938
G1 X33.166 Y133.173 E16.87459
G1 X32.824 Y132.195 E16.92284
G1 X32.61 Y131.557 E16.95417
G1 X32.388 Y130.746 E16.99333
G1 X32.162 Y129.156 E17.06811
G1 X32.019 Y127.828 E17.1303
G1 X31.982 Y127.218 E17.15876
G1 X31.972 Y126.368 E17.19834
G1 X32.025 Y116.044 E17.67908
G1 X32.028 Y83.52 E19.19353
G1 X32.04 Y82.854 E19.22455
G1 X32.093 Y81.746 E19.2762
G1 X32.152 Y80.979 E19.31202
G1 X32.243 Y80.301 E19.34387
G1 X32.374 Y79.61 E19.37662
G1 X32.542 Y78.829 E19.41382
G1 X32.747 Y78.1 E19.44908
G1 X33.166 Y76.897 E19.5084
M204 S3000
M205 X10 Y10
G0 F3000 X33.147 Y83.22
M204 S1800
M205 X8 Y8
G1 F2400 X33.212 Y81.8 E19.57459
G1 X33.268 Y81.069 E19.60873
G1 X33.343 Y80.51 E19.63499
G1 X33.503 Y79.677 E19.67449
G1 X33.636 Y79.067 E19.70356
G1 X33.805 Y78.466 E19.73263
G1 X34.212 Y77.297 E19.79027
G1 X34.503 Y76.536 E19.8282
G1 X34.827 Y75.844 E19.86378
G1 X35.311 Y74.982 E19.90982
G1 X35.812 Y74.14 E19.95544
G1 X36.27 Y73.489 E19.9925
G1 X37.076 Y72.51 E20.05155
G1 X37.539 Y71.977 E20.08443
G1 X38.079 Y71.44 E20.11989
G1 X39.029 Y70.624 E20.1782
G1 X39.576 Y70.177 E20.21109
G1 X40.195 Y69.74 E20.24638
G1 X40.865 Y69.337 E20.28278
G1 X41.87 Y68.765 E20.33663
G1 X42.575 Y68.43 E20.37298
G1 X43.511 Y68.07 E20.41967
G1 X44.368 Y67.764 E20.46204
G1 X44.984 Y67.586 E20.4919
G1 X46.079 Y67.343 E20.54413
G1 X46.624 Y67.241 E20.56995
G1 X47.168 Y67.168 E20.59551
G1 X47.882 Y67.11 E20.62886
G1 X48.653 Y67.071 E20.66481
G1 X49.939 Y67.047 E20.7247
G1 X160.292 Y67.046 E25.8632
G1 X161.39 Y67.066 E25.91434
G1 X162.34 Y67.136 E25.95869
G1 X163.138 Y67.21 E25.99601
G1 X163.728 Y67.299 E26.02379
G1 X164.253 Y67.412 E26.0488
G1 X165.536 Y67.73 E26.11035
G1 X166.27 Y67.96 E26.14616
G1 X167.239 Y68.361 E26.195
G1 X167.889 Y68.641 E26.22795
G1 X168.508 Y68.949 E26.26015
G1 X169.483 Y69.545 E26.31336
G1 X170.063 Y69.915 E26.34539
G1 X170.655 Y70.342 E26.37938
G1 X171.449 Y71.021 E26.42803
G1 X171.974 Y71.484 E26.46062
G1 X172.418 Y71.925 E26.48976
G1 X172.76 Y72.311 E26.51378
G1 X173.586 Y73.294 E26.57356
G1 X173.967 Y73.808 E26.60335
G1 X174.249 Y74.243 E26.62749
G1 X174.558 Y74.746 E26.65498
G1 X174.962 Y75.428 E26.69189
G1 X175.313 Y76.107 E26.72748
G1 X175.936 Y77.643 E26.80467
G1 X176.138 Y78.243 E26.83415
G1 X176.276 Y78.762 E26.85915
G1 X176.575 Y80.047 E26.92059
G1 X176.702 Y80.799 E26.9561
G1 X176.789 Y81.888 E27.00697
G1 X176.842 Y82.805 E27.04974
G1 X176.853 Y83.474 E27.08089
G1 X176.853 Y126.491 E29.08395
G1 X176.834 Y127.493 E29.13061
G1 X176.755 Y128.543 E29.17964
G1 X176.689 Y129.247 E29.21257
G1 X176.602 Y129.828 E29.23992
G1 X176.492 Y130.337 E29.26417
G1 X176.17 Y131.636 E29.32649
G1 X175.953 Y132.333 E29.36048
G1 X175.539 Y133.339 E29.41113
G1 X175.259 Y133.989 E29.44409
G1 X174.93 Y134.651 E29.47851
G1 X174.035 Y136.089 E29.55738
G1 X173.6 Y136.704 E29.59246
G1 X172.878 Y137.551 E29.64428
G1 X172.42 Y138.07 E29.67651
G1 X171.938 Y138.56 E29.70852
G1 X171.112 Y139.267 E29.75915
G1 X170.573 Y139.713 E29.79172
G1 X170.089 Y140.069 E29.8197
G1 X169.644 Y140.357 E29.84438
G1 X169.154 Y140.658 E29.87116
G1 X168.472 Y141.062 E29.90807
G1 X167.816 Y141.402 E29.94247
G1 X166.261 Y142.034 E30.02063
G1 X165.524 Y142.283 E30.05686
G1 X164.512 Y142.526 E30.10532
G1 X163.808 Y142.684 E30.13892
G1 X163.09 Y142.803 E30.17281
G1 X161.986 Y142.891 E30.22438
G1 X160.995 Y142.95 E30.2706
G1 X95.346 Y143.012 E33.3275
G1 X49.63 Y143.01 E35.45622
G1 X48.715 Y142.997 E35.49883
G1 X47.856 Y142.915 E35.53902
G1 X46.585 Y142.767 E35.5986
G1 X45.972 Y142.681 E35.62742
G1 X45.065 Y142.47 E35.67078
G1 X43.858 Y142.074 E35.72993
G1 X42.616 Y141.629 E35.79137
G1 X41.91 Y141.325 E35.82716
G1 X41.029 Y140.788 E35.8752
G1 X40.082 Y140.193 E35.92728
G1 X39.52 Y139.829 E35.95846
G1 X38.917 Y139.384 E35.99335
G1 X38.179 Y138.669 E36.0412
G1 X37.394 Y137.882 E36.09296
G1 X36.926 Y137.401 E36.12421
G1 X36.434 Y136.829 E36.15934
G1 X35.908 Y136.021 E36.20424
G1 X35.268 Y135.002 E36.26027
G1 X34.919 Y134.425 E36.29167
G1 X34.568 Y133.754 E36.32693
G1 X34.223 Y132.804 E36.37399
G1 X33.886 Y131.839 E36.42159
G1 X33.672 Y131.201 E36.45292
G1 X33.453 Y130.283 E36.49687
G1 X33.275 Y129.036 E36.55552
G1 X33.132 Y127.708 E36.61772
G1 X33.102 Y127.205 E36.64118
G1 X33.092 Y126.266 E36.68491
G1 X33.145 Y116.05 E37.16061
G1 X33.147 Y83.22 E38.68931
M204 S3000
M205 X10 Y10
G0 F3000 X32.588 Y83.527
M204 S1800
M205 X8 Y8
G1 F2400 X32.6 Y82.881 E38.7194
G1 X32.665 Y81.583 E38.77992
G1 X32.71 Y81.024 E38.80603
G1 X32.793 Y80.405 E38.83511
G1 X32.924 Y79.714 E38.86786
G1 X33.089 Y78.948 E38.90435
G1 X33.276 Y78.283 E38.93651
G1 X33.689 Y77.097 E38.99499
G1 X33.98 Y76.336 E39.03293
G1 X34.338 Y75.571 E39.07226
G1 X34.752 Y74.831 E39.11174
G1 X35.331 Y73.854 E39.16462
G1 X35.837 Y73.134 E39.2056
G1 X36.653 Y72.143 E39.26538
G1 X37.116 Y71.61 E39.29825
G1 X37.713 Y71.016 E39.33747
G1 X38.558 Y70.288 E39.3894
G1 X39.222 Y69.743 E39.4294
G1 X39.907 Y69.261 E39.4684
G1 X40.701 Y68.785 E39.51151
G1 X41.593 Y68.278 E39.55928
G1 X42.373 Y67.908 E39.59948
G1 X43.322 Y67.543 E39.64683
G1 X44.179 Y67.237 E39.6892
G1 X44.861 Y67.039 E39.72227
G1 X45.768 Y66.835 E39.76556
G1 X46.521 Y66.691 E39.80126
G1 X47.122 Y66.61 E39.82949
G1 X47.836 Y66.552 E39.86285
G1 X48.642 Y66.511 E39.90043
G1 X49.825 Y66.488 E39.95553
G1 X160.292 Y66.486 E45.09933
G1 X161.407 Y66.506 E45.15126
G1 X162.491 Y66.587 E45.20188
G1 X163.189 Y66.652 E45.23452
G1 X163.971 Y66.769 E45.27134
G1 X165.671 Y67.187 E45.35285
G1 X166.464 Y67.434 E45.39153
G1 X167.46 Y67.846 E45.44172
G1 X168.11 Y68.126 E45.47467
G1 X168.821 Y68.481 E45.51168
G1 X169.784 Y69.073 E45.56432
G1 X170.364 Y69.443 E45.59635
G1 X170.985 Y69.89 E45.63198
G1 X171.82 Y70.601 E45.68305
G1 X172.345 Y71.064 E45.71564
G1 X172.836 Y71.552 E45.74787
G1 X173.189 Y71.951 E45.77268
G1 X174.015 Y72.934 E45.83247
G1 X174.436 Y73.502 E45.86539
G1 X174.726 Y73.95 E45.89024
G1 X175.035 Y74.453 E45.91773
G1 X175.444 Y75.143 E45.95508
G1 X175.752 Y75.737 E45.98623
G1 X175.956 Y76.203 E46.00992
G1 X176.455 Y77.433 E46.07173
G1 X176.678 Y78.096 E46.1043
G1 X176.821 Y78.635 E46.13027
G1 X177.12 Y79.92 E46.1917
G1 X177.26 Y80.748 E46.2308
G1 X177.348 Y81.852 E46.28237
G1 X177.402 Y82.795 E46.32635
G1 X177.413 Y83.474 E46.35797
G1 X177.413 Y126.501 E48.36149
G1 X177.394 Y127.528 E48.40932
G1 X177.313 Y128.595 E48.45915
G1 X177.247 Y129.299 E48.49207
G1 X177.15 Y129.941 E48.52231
G1 X177.035 Y130.472 E48.54761
G1 X176.713 Y131.771 E48.60992
G1 X176.465 Y132.566 E48.6487
G1 X176.054 Y133.56 E48.69879
G1 X175.774 Y134.21 E48.73174
G1 X175.483 Y134.793 E48.76208
G1 X175.23 Y135.228 E48.78552
G1 X174.51 Y136.385 E48.84897
G1 X174.036 Y137.055 E48.88719
G1 X173.298 Y137.921 E48.94017
G1 X172.84 Y138.44 E48.9724
G1 X172.312 Y138.977 E49.00747
G1 X171.546 Y139.634 E49.05446
G1 X170.93 Y140.144 E49.09169
G1 X170.394 Y140.538 E49.12267
G1 X169.937 Y140.834 E49.14802
G1 X169.447 Y141.135 E49.1748
G1 X168.757 Y141.544 E49.21215
G1 X168.039 Y141.916 E49.2498
G1 X166.472 Y142.553 E49.32857
G1 X165.804 Y142.778 E49.36139
G1 X165.309 Y142.91 E49.38525
G1 X164.635 Y143.072 E49.41752
G1 X163.931 Y143.23 E49.45112
G1 X163.156 Y143.36 E49.48771
G1 X162.019 Y143.45 E49.54082
G1 X161.011 Y143.51 E49.58784
G1 X95.346 Y143.572 E52.64548
G1 X49.622 Y143.57 E54.77458
G1 X48.677 Y143.556 E54.81859
G1 X47.802 Y143.473 E54.85952
G1 X46.643 Y143.339 E54.91384
G1 X45.895 Y143.235 E54.94901
G1 X45.134 Y143.083 E54.98514
G1 X43.823 Y142.654 E55.04937
G1 X42.427 Y142.156 E55.11839
G1 X41.799 Y141.888 E55.15018
G1 X41.357 Y141.644 E55.17369
G1 X40.731 Y141.262 E55.20784
G1 X39.777 Y140.663 E55.26029
G1 X39.215 Y140.299 E55.29147
G1 X38.558 Y139.816 E55.32944
G1 X37.783 Y139.065 E55.37969
G1 X36.992 Y138.273 E55.43182
G1 X36.524 Y137.792 E55.46306
G1 X35.992 Y137.176 E55.50096
G1 X35.387 Y136.246 E55.55263
G1 X34.84 Y135.375 E55.60052
G1 X34.44 Y134.714 E55.63649
G1 X34.06 Y133.995 E55.67436
G1 X33.694 Y132.988 E55.72425
G1 X33.141 Y131.379 E55.80348
G1 X32.938 Y130.632 E55.83952
G1 X32.746 Y129.312 E55.90163
G1 X32.576 Y127.768 E55.97396
G1 X32.542 Y127.212 E55.9999
G1 X32.532 Y126.362 E56.03948
G1 X32.585 Y116.047 E56.5198
G1 X32.588 Y83.527 E58.03407
M204 S3000
M205 X10 Y10
;MESH:iphone_12_mini.STL
G0 F3000 X37.761 Y83.529
G0 X38.846 Y83.529
G0 X135.758 Y81.139
M204 S1800
M205 X8 Y8
;TYPE:WALL-INNER
G1 F600 X136.332 Y79.255 E58.12577
G1 X137.254 Y77.527 E58.21697
G1 X138.505 Y76.004 E58.30875
G1 X140.025 Y74.757 E58.4003
G1 X141.635 Y73.896 E58.48531
G1 X142.1 Y73.727 E58.50835
G1 X49.048 Y73.727 E62.84124
G1 X47.782 Y73.812 E62.90032
G1 X46.593 Y74.054 E62.95682
G1 X45.092 Y74.606 E63.03129
G1 X43.735 Y75.398 E63.10446
G1 X42.516 Y76.419 E63.1785
G1 X41.496 Y77.633 E63.25233
G1 X40.706 Y78.991 E63.32549
G1 X40.154 Y80.493 E63.4
G1 X39.912 Y81.682 E63.4565
G1 X39.827 Y82.946 E63.51549
G1 X39.826 Y115.894 E65.04969
G1 X39.769 Y127.025 E65.568
G1 X40.019 Y129.144 E65.66735
G1 X40.701 Y131.093 E65.7635
G1 X41.799 Y132.839 E65.85954
G1 X43.261 Y134.301 E65.95582
G1 X45.003 Y135.397 E66.05165
G1 X46.957 Y136.081 E66.14805
G1 X47.786 Y136.185 E66.18696
G1 X49.079 Y136.331 E66.24755
G1 X160.943 Y136.273 E71.4564
G1 X162.43 Y136.155 E71.52586
G1 X163.821 Y135.82 E71.59248
G1 X165.165 Y135.268 E71.66014
G1 X166.389 Y134.517 E71.72701
G1 X167.484 Y133.582 E71.79405
G1 X168.418 Y132.487 E71.86107
G1 X169.17 Y131.262 E71.928
G1 X169.72 Y129.921 E71.99549
G1 X170.055 Y128.53 E72.06212
G1 X170.174 Y127.043 E72.13158
G1 X170.174 Y99.43 E73.41735
G1 X169.244 Y101.173 E73.50935
G1 X167.998 Y102.692 E73.60083
G1 X166.472 Y103.945 E73.69277
G1 X164.741 Y104.87 E73.78416
G1 X162.859 Y105.442 E73.87575
G1 X160.974 Y105.626 E73.96394
G1 X145.531 Y105.626 E74.68303
G1 X143.633 Y105.438 E74.77184
G1 X141.755 Y104.867 E74.86324
G1 X140.022 Y103.941 E74.95474
G1 X138.507 Y102.696 E75.04605
G1 X137.249 Y101.165 E75.13832
G1 X136.328 Y99.432 E75.2297
G1 X135.765 Y97.581 E75.31979
G1 X135.574 Y95.649 E75.41019
G1 X135.573 Y83.024 E75.99806
G1 X135.758 Y81.139 E76.08626
M204 S3000
M205 X10 Y10
G0 F3000 X137.725 Y77.838
G0 X138.904 Y76.403
G0 X140.194 Y75.344
G0 X143.714 Y73.227
G0 X143.715 Y73.188
M204 S1800
M205 X8 Y8
G1 F563.8 X143.572 Y73.181 E76.09335
G1 F576.3 X143.008 Y73.177 E76.12069
G1 F585.4 X142.444 Y73.172 E76.14761
G1 F595.7 X141.88 Y73.168 E76.17406
G1 F600 X49.03 Y73.167 E80.49755
G1 X47.707 Y73.256 E80.55929
G1 X46.44 Y73.514 E80.6195
G1 X44.853 Y74.097 E80.69823
G1 X43.411 Y74.938 E80.77596
G1 X42.118 Y76.021 E80.85449
G1 X41.036 Y77.309 E80.93282
G1 X40.198 Y78.752 E81.01052
G1 X39.614 Y80.34 E81.08931
G1 X39.356 Y81.607 E81.14952
G1 X39.267 Y82.928 E81.21117
G1 X39.266 Y115.891 E82.74606
G1 X39.209 Y127.055 E83.26591
G1 X39.354 Y128.339 E83.32608
G1 X39.471 Y129.273 E83.36991
G1 X40.193 Y131.338 E83.47177
G1 X41.358 Y133.19 E83.57365
G1 X42.91 Y134.742 E83.67586
G1 X44.759 Y135.905 E83.77757
G1 X46.828 Y136.629 E83.87964
G1 X47.772 Y136.747 E83.92394
G1 X49.048 Y136.891 E83.98373
G1 X160.965 Y136.833 E89.19505
G1 X162.518 Y136.709 E89.2676
G1 X163.993 Y136.355 E89.33823
G1 X165.42 Y135.769 E89.41006
G1 X166.719 Y134.971 E89.48105
G1 X167.882 Y133.98 E89.5522
G1 X168.873 Y132.817 E89.62335
G1 X169.671 Y131.516 E89.69442
G1 X170.255 Y130.093 E89.76604
G1 X170.609 Y128.618 E89.83667
G1 X170.734 Y127.065 E89.90922
G1 F601.1 X170.734 Y125.927 E89.96212
G1 X170.734 Y124.789 E90.01501
G1 X170.734 Y123.651 E90.06791
G1 X170.734 Y122.513 E90.1208
G1 F602.2 X170.734 Y121.375 E90.1736
G1 X170.734 Y120.237 E90.2264
G1 X170.735 Y119.099 E90.2792
G1 F603.2 X170.735 Y117.961 E90.33191
G1 X170.735 Y116.823 E90.38462
G1 X170.735 Y115.685 E90.43732
G1 X170.735 Y114.547 E90.49003
G1 F604.3 X170.735 Y113.409 E90.54264
G1 X170.735 Y112.271 E90.59525
G1 X170.736 Y111.133 E90.64786
G1 X170.736 Y109.995 E90.70048
G1 F605.4 X170.736 Y108.857 E90.75299
G1 X170.736 Y107.719 E90.80551
G1 X170.736 Y106.581 E90.85803
G1 X170.736 Y105.443 E90.91054
