;FLAVOR:Marlin
;TIME:38023
;Filament used: 11.9944m
;Layer height: 0.2
;MINX:61.808
;MINY:24.213
;MINZ:0.2
;MAXX:148.192
;MAXY:185.783
;MAXZ:11.6
;Generated with Cura_SteamEngine main
M104 S228
M105
M109 S228
M82 ;absolute extrusion mode
G21 ;metric values
G90 ;absolute positioning
M82 ;set extruder to absolute mode
M107 ;start with the fan off
G28 X0 Y0 ;move X/Y to min endstops
G28 Z0 ;move Z to min endstops
G1 Z15.0 F100 ;move the platform down 15mm
G92 E0 ;zero the extruded length
G1 F200 E3 ;extrude 3mm of feed stock
G92 E0 ;zero the extruded length again
G1 F100
G0 Y20 F100
M117 Printing...
G5
G92 E0
G92 E0
;LAYER_COUNT:58
;LAYER:0
M107
M204 S3000
M205 X10 Y10
G0 F3000 X64.299 Y33.688 Z0.2
G0 X61.865 Y43.151
M204 S1800
M205 X8 Y8
;TYPE:SKIRT
G1 F2400 X61.922 Y42.222 E0.04334
G1 X62.006 Y41.314 E0.0858
G1 X62.14 Y40.25 E0.13574
G1 X62.231 Y39.662 E0.16344
G1 X62.403 Y38.796 E0.20455
G1 X62.717 Y37.523 E0.26561
G1 X63.11 Y36.341 E0.32361
G1 X63.515 Y35.315 E0.37497
G1 X63.964 Y34.356 E0.42428
G1 X64.299 Y33.688 E0.45907
G1 X64.682 Y33.045 E0.49392
G1 X65.008 Y32.543 E0.5218
G1 X65.749 Y31.471 E0.58248
G1 X66.149 Y30.971 E0.61229
G1 X66.608 Y30.443 E0.64487
G1 X67.247 Y29.75 E0.68876
G1 X67.911 Y29.13 E0.73106
G1 X68.64 Y28.49 E0.77624
G1 X69.263 Y28.019 E0.8126
G1 X69.726 Y27.695 E0.83892
G1 X70.544 Y27.155 E0.88456
G1 X71.131 Y26.791 E0.91672
G1 X71.808 Y26.436 E0.95231
G1 X72.383 Y26.163 E0.98195
G1 X73.39 Y25.721 E1.03316
G1 X74.593 Y25.291 E1.09265
G1 X75.529 Y25.02 E1.13802
G1 X76.243 Y24.836 E1.17236
G1 X77.188 Y24.655 E1.21716
G1 X78.149 Y24.499 E1.26249
G1 X79.053 Y24.398 E1.30485
G1 X79.926 Y24.326 E1.34564
G1 X81.301 Y24.253 E1.40975
G1 X82.348 Y24.224 E1.45852
G1 X83.145 Y24.218 E1.49564
G1 X126.813 Y24.213 E3.529
G1 X127.784 Y24.222 E3.57422
G1 X129.115 Y24.265 E3.63623
G1 X130.538 Y24.358 E3.70263
G1 X131.482 Y24.453 E3.74681
G1 X132.074 Y24.531 E3.77461
G1 X132.659 Y24.624 E3.80219
G1 X133.183 Y24.719 E3.82699
G1 X133.766 Y24.841 E3.85473
G1 X134.832 Y25.11 E3.90592
G1 X135.911 Y25.46 E3.95874
G1 X137.024 Y25.894 E4.01437
G1 X138.22 Y26.454 E4.07586
G1 X138.893 Y26.809 E4.11129
G1 X139.353 Y27.084 E4.13625
G1 X139.904 Y27.441 E4.16682
G1 X140.712 Y28 E4.21257
G1 X141.745 Y28.824 E4.2741
G1 X142.49 Y29.498 E4.32088
G1 X143.154 Y30.186 E4.3654
G1 X144.01 Y31.182 E4.42655
G1 X144.589 Y31.96 E4.47171
G1 X145.004 Y32.544 E4.50507
G1 X145.587 Y33.511 E4.55765
G1 X146.165 Y34.613 E4.61559
G1 X146.388 Y35.084 E4.63986
G1 X146.766 Y35.992 E4.68566
G1 X147.04 Y36.75 E4.72319
G1 X147.198 Y37.263 E4.74818
G1 X147.463 Y38.22 E4.79442
G1 X147.765 Y39.661 E4.86298
G1 X147.931 Y40.764 E4.91492
G1 X148.032 Y41.638 E4.95588
G1 X148.135 Y43.182 E5.02794
G1 X148.173 Y44.148 E5.07295
G1 X148.19 Y45.103 E5.11743
G1 X148.185 Y48.957 E5.29689
G1 X148.192 Y49.96 E5.34359
G1 X148.185 Y55.582 E5.60538
G1 X148.192 Y56.507 E5.64845
G1 X148.185 Y62.182 E5.9127
G1 X148.192 Y63.107 E5.95578
G1 X148.185 Y68.782 E6.22003
G1 X148.192 Y69.707 E6.2631
G1 X148.185 Y75.382 E6.52735
G1 X148.192 Y76.307 E6.57043
G1 X148.185 Y81.982 E6.83468
G1 X148.192 Y82.907 E6.87775
G1 X148.185 Y88.582 E7.142
G1 X148.192 Y89.507 E7.18508
G1 X148.185 Y95.182 E7.44933
G1 X148.192 Y96.107 E7.4924
G1 X148.185 Y101.782 E7.75665
G1 X148.192 Y102.707 E7.79973
G1 X148.185 Y108.382 E8.06398
G1 X148.192 Y109.251 E8.10444
G1 X148.192 Y139.445 E9.5104
G1 X148.185 Y141.326 E9.59799
G1 X148.192 Y142.307 E9.64367
G1 X148.185 Y147.982 E9.90792
G1 X148.192 Y148.907 E9.951
G1 X148.185 Y154.582 E10.21525
G1 X148.192 Y155.507 E10.25832
G1 X148.185 Y161.22 E10.52434
G1 X148.192 Y162.129 E10.56667
G1 X148.19 Y164.898 E10.69561
G1 X148.157 Y166.337 E10.76263
G1 X148.09 Y167.661 E10.82436
G1 X148.023 Y168.525 E10.86471
G1 X147.845 Y169.91 E10.92973
G1 X147.647 Y171.008 E10.98169
G1 X147.475 Y171.733 E11.01638
G1 X147.268 Y172.53 E11.05473
G1 X146.888 Y173.664 E11.11042
G1 X146.49 Y174.675 E11.16101
G1 X146.044 Y175.63 E11.21009
G1 X145.708 Y176.301 E11.24503
G1 X145.322 Y176.95 E11.28019
G1 X144.968 Y177.497 E11.31053
G1 X144.464 Y178.227 E11.35184
G1 X144.022 Y178.832 E11.38673
G1 X143.356 Y179.596 E11.43392
G1 X142.938 Y180.051 E11.46269
G1 X142.258 Y180.716 E11.50698
G1 X141.567 Y181.331 E11.55005
G1 X141.076 Y181.736 E11.57969
G1 X140.445 Y182.189 E11.61586
G1 X139.463 Y182.84 E11.67072
G1 X138.852 Y183.218 E11.70418
G1 X138.187 Y183.568 E11.73917
G1 X137.595 Y183.849 E11.76968
G1 X136.653 Y184.262 E11.81758
G1 X135.409 Y184.71 E11.87914
G1 X134.471 Y184.981 E11.92461
G1 X133.757 Y185.165 E11.95894
G1 X132.812 Y185.346 E12.00374
G1 X131.851 Y185.502 E12.04908
G1 X130.947 Y185.603 E12.09143
G1 X130.074 Y185.675 E12.13222
G1 X128.699 Y185.748 E12.19634
G1 X127.652 Y185.777 E12.24511
G1 X126.856 Y185.783 E12.28217
G1 X82.631 Y185.78 E14.34148
G1 X81.381 Y185.752 E14.3997
G1 X80.104 Y185.689 E14.45923
G1 X79.448 Y185.637 E14.48987
G1 X77.637 Y185.429 E14.57475
G1 X76.881 Y185.293 E14.61052
G1 X75.973 Y185.091 E14.65384
G1 X75.368 Y184.936 E14.68292
G1 X74.604 Y184.716 E14.71994
G1 X73.61 Y184.364 E14.76904
G1 X72.281 Y183.795 E14.83636
G1 X71.33 Y183.309 E14.88609
G1 X70.283 Y182.686 E14.94282
G1 X69.383 Y182.065 E14.99373
G1 X68.758 Y181.593 E15.0302
G1 X68.367 Y181.263 E15.05403
G1 X67.436 Y180.413 E15.11273
G1 X66.936 Y179.927 E15.1452
G1 X66.337 Y179.251 E15.18725
G1 X65.373 Y177.998 E15.26087
G1 X64.696 Y176.969 E15.31822
G1 X64.096 Y175.914 E15.37474
G1 X63.556 Y174.786 E15.43297
G1 X63.082 Y173.587 E15.493
G1 X62.889 Y173.025 E15.52067
G1 X62.586 Y171.984 E15.57116
G1 X62.365 Y171.012 E15.61757
G1 X62.187 Y170.102 E15.66075
G1 X62.03 Y168.911 E15.71669
G1 X61.92 Y167.682 E15.77414
G1 X61.843 Y166.317 E15.83781
G1 X61.816 Y165.343 E15.88318
G1 X61.808 Y164.434 E15.9255
G1 X61.815 Y160.295 E16.11823
G1 X61.808 Y159.373 E16.16117
G1 X61.815 Y153.698 E16.42542
G1 X61.808 Y152.829 E16.46588
G1 X61.808 Y109.435 E18.48649
G1 X61.815 Y107.554 E18.57408
G1 X61.808 Y106.573 E18.61976
G1 X61.815 Y100.898 E18.88401
G1 X61.808 Y99.973 E18.92708
G1 X61.815 Y94.298 E19.19134
G1 X61.808 Y93.373 E19.23441
G1 X61.815 Y87.698 E19.49866
G1 X61.808 Y86.773 E19.54174
G1 X61.815 Y81.098 E19.80599
G1 X61.808 Y80.229 E19.84645
G1 X61.808 Y56.635 E20.94509
G1 X61.815 Y54.754 E21.03268
G1 X61.808 Y53.773 E21.07836
G1 X61.815 Y48.117 E21.34172
G1 X61.809 Y45.394 E21.46852
G1 X61.817 Y44.547 E21.50796
G1 X61.865 Y43.151 E21.573
M204 S3000
M205 X10 Y10
G0 F3000 X62.369 Y45.399
M204 S1800
M205 X8 Y8
G1 F2400 X62.38 Y44.41 E21.61906
G1 X62.416 Y43.346 E21.66863
G1 X62.481 Y42.256 E21.71947
G1 X62.562 Y41.384 E21.76025
G1 X62.696 Y40.32 E21.81019
G1 X62.784 Y39.752 E21.83695
G1 X62.952 Y38.908 E21.87702
G1 X63.256 Y37.674 E21.9362
G1 X63.631 Y36.547 E21.99151
G1 X64.036 Y35.521 E22.04287
G1 X64.557 Y34.416 E22.09976
G1 X64.935 Y33.699 E22.1375
G1 X65.348 Y33.042 E22.17363
G1 X66.038 Y32.038 E22.23036
G1 X66.574 Y31.336 E22.27149
G1 X67.02 Y30.823 E22.30314
G1 X67.645 Y30.145 E22.34608
G1 X68.28 Y29.551 E22.38657
G1 X68.986 Y28.931 E22.43032
G1 X69.587 Y28.476 E22.46542
G1 X70.035 Y28.162 E22.49089
G1 X70.853 Y27.622 E22.53653
G1 X71.553 Y27.201 E22.57457
G1 X72.052 Y26.94 E22.60079
G1 X72.609 Y26.675 E22.62951
G1 X73.581 Y26.248 E22.67895
G1 X74.784 Y25.818 E22.73844
G1 X75.891 Y25.502 E22.79204
G1 X76.517 Y25.354 E22.82199
G1 X77.278 Y25.208 E22.85808
G1 X78.089 Y25.076 E22.89634
G1 X78.938 Y24.972 E22.93617
G1 X79.957 Y24.885 E22.98379
G1 X81.316 Y24.812 E23.04716
G1 X82.233 Y24.786 E23.08988
G1 X83.145 Y24.778 E23.13234
G1 X126.809 Y24.773 E25.16552
G1 X127.766 Y24.782 E25.21009
G1 X129.288 Y24.834 E25.281
G1 X130.299 Y24.9 E25.32818
G1 X131.235 Y24.988 E25.37195
G1 X132.199 Y25.111 E25.4172
G1 X133.267 Y25.306 E25.46776
G1 X133.892 Y25.446 E25.49758
G1 X134.699 Y25.656 E25.53641
G1 X135.842 Y26.031 E25.59242
G1 X136.807 Y26.411 E25.64072
G1 X137.967 Y26.954 E25.70035
G1 X138.61 Y27.292 E25.73418
G1 X139.052 Y27.556 E25.75815
G1 X139.586 Y27.901 E25.78776
G1 X140.367 Y28.441 E25.83197
G1 X141.24 Y29.137 E25.88396
G1 X141.773 Y29.601 E25.91686
G1 X142.236 Y30.042 E25.94664
G1 X142.73 Y30.551 E25.97967
G1 X143.578 Y31.539 E26.04029
G1 X144.324 Y32.54 E26.09842
G1 X144.643 Y33.032 E26.12573
G1 X145.105 Y33.798 E26.16738
G1 X145.79 Y35.103 E26.23601
G1 X146.241 Y36.186 E26.29064
G1 X146.506 Y36.92 E26.32697
G1 X146.658 Y37.412 E26.35095
G1 X146.919 Y38.354 E26.39647
G1 X147.214 Y39.758 E26.46327
G1 X147.345 Y40.61 E26.50341
G1 X147.475 Y41.694 E26.55425
G1 X147.585 Y43.388 E26.63329
G1 X147.613 Y44.158 E26.66917
G1 X147.63 Y45.103 E26.71318
G1 X147.625 Y48.957 E26.89264
G1 X147.632 Y49.959 E26.9393
G1 X147.625 Y55.581 E27.20108
G1 X147.632 Y56.506 E27.24416
G1 X147.625 Y62.181 E27.50841
G1 X147.632 Y63.106 E27.55148
G1 X147.625 Y68.781 E27.81573
G1 X147.632 Y69.706 E27.85881
G1 X147.625 Y75.381 E28.12306
G1 X147.632 Y76.306 E28.16613
G1 X147.625 Y81.981 E28.43038
G1 X147.632 Y82.906 E28.47346
G1 X147.625 Y88.581 E28.73771
G1 X147.632 Y89.506 E28.78078
G1 X147.625 Y95.181 E29.04503
G1 X147.632 Y96.106 E29.08811
G1 X147.625 Y101.781 E29.35236
G1 X147.632 Y102.706 E29.39543
G1 X147.625 Y108.381 E29.65968
G1 X147.632 Y109.255 E29.70038
G1 X147.632 Y139.443 E31.10606
G1 X147.625 Y141.395 E31.19696
G1 X147.632 Y142.306 E31.23938
G1 X147.625 Y147.981 E31.50363
G1 X147.632 Y148.906 E31.5467
G1 X147.625 Y154.581 E31.81095
G1 X147.632 Y155.506 E31.85403
G1 X147.625 Y161.219 E32.12005
G1 X147.632 Y162.128 E32.16238
G1 X147.629 Y165.022 E32.29713
G1 X147.604 Y166.153 E32.34981
G1 X147.532 Y167.618 E32.41811
G1 X147.486 Y168.214 E32.44594
G1 X147.422 Y168.827 E32.47464
G1 X147.291 Y169.827 E32.52161
G1 X147.099 Y170.892 E32.572
G1 X146.933 Y171.592 E32.60549
G1 X146.73 Y172.371 E32.64298
G1 X146.36 Y173.476 E32.69724
G1 X145.975 Y174.457 E32.74631
G1 X145.537 Y175.393 E32.79443
G1 X145.225 Y176.017 E32.82692
G1 X144.849 Y176.649 E32.86116
G1 X144.507 Y177.179 E32.89053
G1 X144.003 Y177.909 E32.93184
G1 X143.574 Y178.494 E32.96562
G1 X142.944 Y179.217 E33.01027
G1 X142.379 Y179.832 E33.04916
G1 X141.73 Y180.44 E33.09057
G1 X141.035 Y181.054 E33.13375
G1 X140.382 Y181.548 E33.17188
G1 X139.961 Y181.842 E33.19579
G1 X139.155 Y182.373 E33.24073
G1 X138.574 Y182.731 E33.27251
G1 X137.943 Y183.064 E33.30573
G1 X137.37 Y183.337 E33.33529
G1 X136.454 Y183.738 E33.38185
G1 X135.231 Y184.179 E33.44238
G1 X134.109 Y184.499 E33.49671
G1 X133.483 Y184.647 E33.52667
G1 X132.722 Y184.793 E33.56275
G1 X131.911 Y184.925 E33.60101
G1 X131.062 Y185.029 E33.64084
G1 X130.043 Y185.116 E33.68846
G1 X128.683 Y185.189 E33.75188
G1 X127.765 Y185.215 E33.79464
G1 X126.856 Y185.223 E33.83697
G1 X82.631 Y185.22 E35.89627
G1 X81.249 Y185.187 E35.96064
G1 X80.149 Y185.131 E36.01193
G1 X79.493 Y185.079 E36.04257
G1 X77.723 Y184.876 E36.12553
G1 X76.984 Y184.743 E36.16049
G1 X75.923 Y184.502 E36.21115
G1 X75.356 Y184.352 E36.23846
G1 X74.611 Y184.125 E36.27473
G1 X73.821 Y183.845 E36.31376
G1 X72.516 Y183.286 E36.37986
G1 X71.597 Y182.816 E36.42793
G1 X70.592 Y182.219 E36.48236
G1 X69.701 Y181.604 E36.53277
G1 X68.943 Y181.032 E36.57699
G1 X67.813 Y180 E36.64825
G1 X67.45 Y179.646 E36.67186
G1 X66.921 Y179.065 E36.70844
G1 X66.493 Y178.541 E36.73995
G1 X65.818 Y177.656 E36.79178
G1 X65.181 Y176.688 E36.84573
G1 X64.588 Y175.646 E36.90156
G1 X64.073 Y174.57 E36.95711
G1 X63.603 Y173.381 E37.01664
G1 X63.427 Y172.868 E37.0419
G1 X63.126 Y171.835 E37.092
G1 X62.911 Y170.888 E37.13721
G1 X62.742 Y170.018 E37.17848
G1 X62.588 Y168.861 E37.23283
G1 X62.478 Y167.632 E37.29029
G1 X62.403 Y166.302 E37.35232
G1 X62.376 Y165.328 E37.39769
G1 X62.368 Y164.435 E37.43927
G1 X62.375 Y160.296 E37.632
G1 X62.368 Y159.374 E37.67493
G1 X62.375 Y153.699 E37.93919
G1 X62.368 Y152.825 E37.97989
G1 X62.368 Y109.437 E40.00021
G1 X62.375 Y107.485 E40.09111
G1 X62.368 Y106.574 E40.13353
G1 X62.375 Y100.899 E40.39778
G1 X62.368 Y99.974 E40.44085
G1 X62.375 Y94.299 E40.7051
G1 X62.368 Y93.374 E40.74818
G1 X62.375 Y87.699 E41.01243
G1 X62.368 Y86.774 E41.0555
G1 X62.375 Y81.099 E41.31975
G1 X62.368 Y80.225 E41.36045
G1 X62.368 Y56.637 E42.45881
G1 X62.375 Y54.685 E42.5497
G1 X62.368 Y53.774 E42.59212
G1 X62.375 Y48.118 E42.85549
G1 X62.369 Y45.399 E42.9821
M204 S3000
M205 X10 Y10
G0 F3000 X62.929 Y45.404
M204 S1800
M205 X8 Y8
G1 F2400 X62.937 Y44.557 E43.02154
G1 X62.976 Y43.364 E43.07712
G1 X63.052 Y42.13 E43.13469
G1 X63.117 Y41.454 E43.16631
G1 X63.251 Y40.39 E43.21625
G1 X63.337 Y39.841 E43.24213
G1 X63.501 Y39.021 E43.28106
G1 X63.795 Y37.827 E43.33832
G1 X64.154 Y36.748 E43.39127
G1 X64.551 Y35.742 E43.44163
G1 X65.056 Y34.67 E43.49681
G1 X65.355 Y34.104 E43.52662
G1 X65.626 Y33.648 E43.55132
G1 X65.929 Y33.18 E43.57728
G1 X66.656 Y32.13 E43.63675
G1 X66.998 Y31.702 E43.66226
G1 X67.432 Y31.202 E43.69309
G1 X67.913 Y30.68 E43.72614
G1 X68.51 Y30.099 E43.76493
G1 X69.34 Y29.365 E43.81652
G1 X69.912 Y28.932 E43.84993
G1 X70.343 Y28.63 E43.87443
G1 X71.161 Y28.09 E43.92007
G1 X71.818 Y27.695 E43.95577
G1 X72.295 Y27.444 E43.98087
G1 X72.834 Y27.188 E44.00865
G1 X73.797 Y26.765 E44.05763
G1 X74.942 Y26.356 E44.11424
G1 X75.84 Y26.096 E44.15778
G1 X76.488 Y25.93 E44.18892
G1 X77.201 Y25.79 E44.22276
G1 X78.426 Y25.594 E44.28053
G1 X79.15 Y25.513 E44.31445
G1 X79.823 Y25.455 E44.3459
G1 X81.332 Y25.372 E44.41627
G1 X82.357 Y25.344 E44.46402
G1 X83.145 Y25.338 E44.50071
G1 X126.805 Y25.333 E46.53371
G1 X127.616 Y25.339 E46.57147
G1 X129.252 Y25.393 E46.64769
G1 X130.263 Y25.459 E46.69487
G1 X131.181 Y25.546 E46.7378
G1 X131.762 Y25.618 E46.76507
G1 X132.459 Y25.726 E46.79791
G1 X132.983 Y25.821 E46.82271
G1 X133.531 Y25.936 E46.84878
G1 X134.522 Y26.188 E46.89639
G1 X135.652 Y26.558 E46.95176
G1 X136.59 Y26.927 E46.99869
G1 X137.565 Y27.381 E47.04877
G1 X138.034 Y27.615 E47.07318
G1 X138.581 Y27.924 E47.10243
G1 X139.104 Y28.254 E47.13123
G1 X140.03 Y28.889 E47.18351
G1 X141.015 Y29.673 E47.24213
G1 X141.714 Y30.306 E47.28604
G1 X142.327 Y30.941 E47.32714
G1 X143.138 Y31.886 E47.38513
G1 X143.778 Y32.749 E47.43516
G1 X144.164 Y33.321 E47.46729
G1 X144.612 Y34.064 E47.50769
G1 X145.278 Y35.334 E47.57446
G1 X145.716 Y36.381 E47.62731
G1 X146.043 Y37.285 E47.67207
G1 X146.373 Y38.481 E47.72985
G1 X146.662 Y39.857 E47.79532
G1 X146.818 Y40.893 E47.8441
G1 X146.925 Y41.875 E47.8901
G1 X147.025 Y43.409 E47.96168
G1 X147.053 Y44.169 E47.99709
G1 X147.07 Y45.102 E48.04054
G1 X147.065 Y48.956 E48.22
G1 X147.072 Y49.959 E48.26671
G1 X147.065 Y55.581 E48.52849
G1 X147.072 Y56.506 E48.57156
G1 X147.065 Y62.181 E48.83581
G1 X147.072 Y63.106 E48.87889
G1 X147.065 Y68.781 E49.14314
G1 X147.072 Y69.706 E49.18621
G1 X147.065 Y75.381 E49.45046
G1 X147.072 Y76.306 E49.49354
G1 X147.065 Y81.981 E49.75779
G1 X147.072 Y82.906 E49.80086
G1 X147.065 Y88.581 E50.06512
G1 X147.072 Y89.506 E50.10819
G1 X147.065 Y95.181 E50.37244
G1 X147.072 Y96.106 E50.41551
G1 X147.065 Y101.781 E50.67977
G1 X147.072 Y102.706 E50.72284
G1 X147.065 Y108.381 E50.98709
G1 X147.072 Y109.259 E51.02798
G1 X147.072 Y139.441 E52.43338
G1 X147.065 Y141.393 E52.52427
G1 X147.072 Y142.306 E52.56678
G1 X147.065 Y147.981 E52.83104
G1 X147.072 Y148.906 E52.87411
G1 X147.065 Y154.581 E53.13836
G1 X147.072 Y155.505 E53.18139
G1 X147.065 Y161.218 E53.44741
G1 X147.072 Y162.128 E53.48978
G1 X147.069 Y165.01 E53.62398
G1 X147.039 Y166.282 E53.68323
G1 X146.983 Y167.427 E53.73661
G1 X146.927 Y168.171 E53.77135
G1 X146.867 Y168.754 E53.79864
G1 X146.755 Y169.612 E53.83893
G1 X146.574 Y170.648 E53.8879
G1 X146.391 Y171.451 E53.92625
G1 X146.188 Y172.23 E53.96374
G1 X145.786 Y173.407 E54.02165
G1 X145.466 Y174.22 E54.06233
G1 X145.029 Y175.156 E54.11043
G1 X144.73 Y175.755 E54.14161
G1 X144.377 Y176.348 E54.17374
G1 X144.046 Y176.861 E54.20217
G1 X143.438 Y177.737 E54.25182
G1 X143.008 Y178.29 E54.28444
G1 X142.531 Y178.838 E54.31827
G1 X141.978 Y179.44 E54.35634
G1 X141.359 Y180.02 E54.39583
G1 X140.676 Y180.623 E54.43826
G1 X139.894 Y181.215 E54.48393
G1 X138.847 Y181.905 E54.54232
G1 X138.294 Y182.246 E54.57257
G1 X137.7 Y182.56 E54.60386
G1 X137.145 Y182.824 E54.63247
G1 X136.247 Y183.218 E54.67814
